(/Applications/pcbgcode.repo/pcb-gcode.ulp)
(Copyright 2005 - 2012 by John Johnson)
(See readme.txt for licensing terms.)
(This file generated from the board:)
(.../LinearSlewLimiter/LinearSlewLimiter.brd)
(Current profile is .../pcbgcode.repo/profiles/mach.pp  )
(This file generated 10/9/15 6:27 PM)
(Settings from pcb-machine.h)
(spindle on time = 0.0000)
(  Tool Size)
(0.0100  )
(spindle speed = 30000.0000)
(tool change at 0.0000  0.0000  3.0000  )
(feed rate xy = F20    )
(feed rate z  = F10    )
(Z Axis Settings)
(  High     Up        Down     Drill)
(1.0000  	0.0500  	-0.0040 	-0.0730 )
(Settings from pcb-defaults.h)
(isolate min = 0.0010)
(isolate max = 0.0150)
(isolate step = 0.0015)
(Generated bottom outlines, bottom drill, )
(Unit of measure: inch)
(Inch Mode)
G20
(Absolute Coordinates)
G90
S30000
G00 Z1.0000  
G00 X0.0000  Y0.0000  
M03
G04 P0.000000
G00 Z0.0500  
G00 X-0.0857 Y0.3136  
G01 Z-0.0040 F10    
G01 X-0.0866 Y0.3130  F20    
G01 X-0.0874 Y0.3122  
G01 X-0.0885 Y0.3115  
G01 X-0.1882 Y0.2364  
G01 X-0.1889 Y0.2356  
G01 X-0.1900 Y0.2350  
G01 X-0.1911 Y0.2342  
G01 X-0.1921 Y0.2338  
G01 X-0.1931 Y0.2332  
G01 X-0.1943 Y0.2329  
G01 X-0.1955 Y0.2324  
G01 X-0.1966 Y0.2323  
G01 X-0.1976 Y0.2320  
G01 X-0.1989 Y0.2320  
G01 X-0.2002 Y0.2318  
G01 X-0.2013 Y0.2320  
G01 X-0.6232 Y0.2320  
G01 X-0.6238 Y0.2319  
G01 X-0.6256 Y0.2320  
G01 X-0.6274 Y0.2320  
G01 X-0.6279 Y0.2322  
G01 X-0.6285 Y0.2322  
G01 X-0.6302 Y0.2328  
G01 X-0.6319 Y0.2332  
G01 X-0.6325 Y0.2335  
G01 X-0.6330 Y0.2337  
G01 X-0.6345 Y0.2347  
G01 X-0.6361 Y0.2356  
G01 X-0.6365 Y0.2360  
G01 X-0.7095 Y0.2847  
G01 X-0.7111 Y0.2856  
G01 X-0.7115 Y0.2860  
G01 X-0.7120 Y0.2863  
G01 X-0.7131 Y0.2877  
G01 X-0.7144 Y0.2889  
G01 X-0.7147 Y0.2895  
G01 X-0.7151 Y0.2899  
G01 X-0.7159 Y0.2915  
G01 X-0.7168 Y0.2931  
G01 X-0.7169 Y0.2936  
G01 X-0.7172 Y0.2941  
G01 X-0.7175 Y0.2959  
G01 X-0.7180 Y0.2976  
G01 X-0.7180 Y0.2982  
G01 X-0.7181 Y0.2988  
G01 X-0.7180 Y0.3006  
G01 X-0.7180 Y0.4175  
G01 X-0.7325 Y0.4320  
G01 X-0.7572 Y0.4320  
G01 X-0.7822 Y0.4070  
G01 X-0.8178 Y0.4070  
G01 X-0.8430 Y0.4322  
G01 X-0.8430 Y0.4389  
G01 X-0.8570 Y0.4413  
G01 X-0.8570 Y0.4322  
G01 X-0.8822 Y0.4070  
G01 X-0.9178 Y0.4070  
G01 X-0.9430 Y0.4322  
G01 X-0.9430 Y0.4422  
G01 X-0.9445 Y0.4426  
G01 X-0.9467 Y0.4431  
G01 X-0.9468 Y0.4432  
G01 X-0.9469 Y0.4432  
G01 X-0.9489 Y0.4443  
G01 X-0.9508 Y0.4454  
G01 X-0.9509 Y0.4455  
G01 X-0.9511 Y0.4456  
G01 X-0.9526 Y0.4472  
G01 X-0.9542 Y0.4487  
G01 X-0.9543 Y0.4488  
G01 X-0.9544 Y0.4489  
G01 X-0.9555 Y0.4509  
G01 X-0.9567 Y0.4528  
G01 X-0.9567 Y0.4529  
G01 X-0.9568 Y0.4531  
G01 X-0.9573 Y0.4552  
G01 X-0.9580 Y0.4573  
G01 X-0.9580 Y0.4575  
G01 X-0.9580 Y0.4576  
G01 X-0.9580 Y0.4599  
G01 X-0.9580 Y0.4621  
G01 X-0.9580 Y0.4622  
G01 X-0.9580 Y0.4624  
G01 X-0.9574 Y0.4645  
G01 X-0.9569 Y0.4667  
G01 X-0.9568 Y0.4668  
G01 X-0.9568 Y0.4669  
G01 X-0.9557 Y0.4689  
G01 X-0.9546 Y0.4708  
G01 X-0.9545 Y0.4709  
G01 X-0.9544 Y0.4711  
G01 X-0.9528 Y0.4726  
G01 X-0.9513 Y0.4742  
G01 X-0.9512 Y0.4743  
G01 X-0.9511 Y0.4744  
G01 X-0.9491 Y0.4755  
G01 X-0.9472 Y0.4767  
G01 X-0.9471 Y0.4767  
G01 X-0.9469 Y0.4768  
G01 X-0.9448 Y0.4773  
G01 X-0.9427 Y0.4780  
G01 X-0.9425 Y0.4780  
G01 X-0.9424 Y0.4780  
G01 X-0.9401 Y0.4780  
G01 X-0.9379 Y0.4780  
G01 X-0.9378 Y0.4780  
G01 X-0.9328 Y0.4780  
G01 X-0.9178 Y0.4930  
G01 X-0.9084 Y0.4930  
G01 X-0.9148 Y0.5070  
G01 X-0.9178 Y0.5070  
G01 X-0.9430 Y0.5322  
G01 X-0.9430 Y0.5678  
G01 X-0.9178 Y0.5930  
G01 X-0.8822 Y0.5930  
G01 X-0.8780 Y0.5888  
G01 X-0.8780 Y0.6112  
G01 X-0.8822 Y0.6070  
G01 X-0.9178 Y0.6070  
G01 X-0.9430 Y0.6322  
G01 X-0.9430 Y0.6422  
G01 X-0.9445 Y0.6426  
G01 X-0.9467 Y0.6431  
G01 X-0.9468 Y0.6432  
G01 X-0.9469 Y0.6432  
G01 X-0.9488 Y0.6443  
G01 X-1.0723 Y0.6770  
G01 X-1.0746 Y0.6776  
G01 X-1.0769 Y0.6782  
G01 X-1.0790 Y0.6794  
G01 X-1.0810 Y0.6806  
G01 X-1.0827 Y0.6823  
G01 X-1.0844 Y0.6839  
G01 X-1.0856 Y0.6860  
G01 X-1.0868 Y0.6880  
G01 X-1.0874 Y0.6903  
G01 X-1.0880 Y0.6926  
G01 X-1.0880 Y0.6950  
G01 X-1.0880 Y0.6973  
G01 X-1.0880 Y1.1383  
G01 X-1.0881 Y1.1389  
G01 X-1.0880 Y1.1406  
G01 X-1.0880 Y1.1424  
G01 X-1.0878 Y1.1430  
G01 X-1.0878 Y1.1436  
G01 X-1.0872 Y1.1453  
G01 X-1.0868 Y1.1469  
G01 X-1.0865 Y1.1475  
G01 X-1.0862 Y1.1481  
G01 X-1.0853 Y1.1495  
G01 X-1.0844 Y1.1511  
G01 X-1.0840 Y1.1515  
G01 X-1.0836 Y1.1520  
G01 X-1.0823 Y1.1532  
G01 X-1.0811 Y1.1544  
G01 X-1.0805 Y1.1547  
G01 X-1.0800 Y1.1551  
G01 X-1.0785 Y1.1559  
G01 X-1.0769 Y1.1568  
G01 X-1.0763 Y1.1569  
G01 X-0.8924 Y1.2465  
G01 X-0.8694 Y1.6742  
G01 X-0.8820 Y1.6867  
G01 X-0.8820 Y1.7133  
G01 X-0.8633 Y1.7320  
G01 X-0.8552 Y1.7320  
G01 X-0.8176 Y1.8147  
G01 X-0.8030 Y1.9758  
G01 X-0.8030 Y2.1392  
G01 X-0.8031 Y2.1407  
G01 X-0.8030 Y2.1415  
G01 X-0.8030 Y2.1424  
G01 X-0.8026 Y2.1439  
G01 X-0.8023 Y2.1454  
G01 X-0.8020 Y2.1461  
G01 X-0.8018 Y2.1469  
G01 X-0.8010 Y2.1483  
G01 X-0.8003 Y2.1497  
G01 X-0.7998 Y2.1503  
G01 X-0.7994 Y2.1511  
G01 X-0.7983 Y2.1521  
G01 X-0.7973 Y2.1533  
G01 X-0.7966 Y2.1538  
G01 X-0.7961 Y2.1544  
G01 X-0.7947 Y2.1552  
G01 X-0.7320 Y2.1994  
G01 X-0.7320 Y2.2032  
G01 X-0.7308 Y2.2093  
G01 X-0.7303 Y2.2104  
G01 X-0.7886 Y2.2882  
G01 X-0.7894 Y2.2889  
G01 X-0.7900 Y2.2901  
G01 X-0.7908 Y2.2911  
G01 X-0.7912 Y2.2921  
G01 X-0.7918 Y2.2931  
G01 X-0.7921 Y2.2943  
G01 X-0.7926 Y2.2955  
G01 X-0.7927 Y2.2966  
G01 X-0.7930 Y2.2976  
G01 X-0.7930 Y2.2989  
G01 X-0.7932 Y2.3002  
G01 X-0.7930 Y2.3013  
G01 X-0.7930 Y2.3227  
G01 X-0.8070 Y2.3367  
G01 X-0.8070 Y2.3633  
G01 X-0.7978 Y2.3724  
G01 X-0.8175 Y2.4709  
G01 X-0.8180 Y2.4726  
G01 X-0.8180 Y2.4732  
G01 X-0.8181 Y2.4738  
G01 X-0.8180 Y2.4756  
G01 X-0.8180 Y2.9024  
G01 X-0.8168 Y2.9069  
G01 X-0.8144 Y2.9111  
G01 X-0.7644 Y2.9611  
G01 X-0.7611 Y2.9644  
G01 X-0.7569 Y2.9668  
G01 X-0.7524 Y2.9680  
G01 X-0.2492 Y2.9680  
G01 X-0.2446 Y2.9668  
G01 X-0.2405 Y2.9644  
G01 X-0.1483 Y2.8722  
G01 X-0.1463 Y2.8762  
G01 X-0.1411 Y2.8833  
G01 X-0.1349 Y2.8896  
G01 X-0.1278 Y2.8947  
G01 X-0.1199 Y2.8987  
G01 X-0.1115 Y2.9015  
G01 X-0.1028 Y2.9029  
G01 X-0.0940 Y2.9029  
G01 X-0.0853 Y2.9015  
G01 X-0.0769 Y2.8987  
G01 X-0.0691 Y2.8947  
G01 X-0.0619 Y2.8896  
G01 X-0.0557 Y2.8833  
G01 X-0.0505 Y2.8762  
G01 X-0.0465 Y2.8683  
G01 X-0.0438 Y2.8600  
G01 X-0.0424 Y2.8513  
G01 X-0.0424 Y2.7424  
G01 X-0.0438 Y2.7337  
G01 X-0.0465 Y2.7254  
G01 X-0.0505 Y2.7175  
G01 X-0.0557 Y2.7104  
G01 X-0.0619 Y2.7041  
G01 X-0.0691 Y2.6990  
G01 X-0.0769 Y2.6950  
G01 X-0.0853 Y2.6922  
G01 X-0.0940 Y2.6909  
G01 X-0.1028 Y2.6909  
G01 X-0.1115 Y2.6922  
G01 X-0.1199 Y2.6950  
G01 X-0.1278 Y2.6990  
G01 X-0.1349 Y2.7041  
G01 X-0.1411 Y2.7104  
G01 X-0.1463 Y2.7175  
G01 X-0.1503 Y2.7254  
G01 X-0.1530 Y2.7337  
G01 X-0.1544 Y2.7424  
G01 X-0.1544 Y2.8274  
G01 X-0.2590 Y2.9320  
G01 X-0.7425 Y2.9320  
G01 X-0.7820 Y2.8925  
G01 X-0.7820 Y2.4768  
G01 X-0.7630 Y2.3820  
G01 X-0.7617 Y2.3820  
G01 X-0.7430 Y2.3633  
G01 X-0.7430 Y2.3367  
G01 X-0.7570 Y2.3227  
G01 X-0.7570 Y2.3060  
G01 X-0.7015 Y2.2320  
G01 X-0.6968 Y2.2320  
G01 X-0.6907 Y2.2308  
G01 X-0.6848 Y2.2284  
G01 X-0.6796 Y2.2249  
G01 X-0.6751 Y2.2204  
G01 X-0.6716 Y2.2152  
G01 X-0.6692 Y2.2093  
G01 X-0.6680 Y2.2032  
G01 X-0.6680 Y2.1968  
G01 X-0.6692 Y2.1907  
G01 X-0.6716 Y2.1848  
G01 X-0.6751 Y2.1796  
G01 X-0.6796 Y2.1751  
G01 X-0.6848 Y2.1716  
G01 X-0.6907 Y2.1692  
G01 X-0.6968 Y2.1680  
G01 X-0.7032 Y2.1680  
G01 X-0.7093 Y2.1692  
G01 X-0.7113 Y2.1700  
G01 X-0.7670 Y2.1307  
G01 X-0.7670 Y1.9765  
G01 X-0.7669 Y1.9757  
G01 X-0.7670 Y1.9742  
G01 X-0.7670 Y1.9726  
G01 X-0.7672 Y1.9718  
G01 X-0.7819 Y1.8101  
G01 X-0.7819 Y1.8094  
G01 X-0.7821 Y1.8077  
G01 X-0.7823 Y1.8060  
G01 X-0.7825 Y1.8054  
G01 X-0.7826 Y1.8047  
G01 X-0.7833 Y1.8032  
G01 X-0.7839 Y1.8016  
G01 X-0.7843 Y1.8010  
G01 X-0.8223 Y1.7175  
G01 X-0.8180 Y1.7133  
G01 X-0.8180 Y1.6867  
G01 X-0.8335 Y1.6712  
G01 X-0.8569 Y1.2362  
G01 X-0.8569 Y1.2361  
G01 X-0.8570 Y1.2339  
G01 X-0.8572 Y1.2317  
G01 X-0.8572 Y1.2315  
G01 X-0.8572 Y1.2314  
G01 X-0.8579 Y1.2293  
G01 X-0.8586 Y1.2272  
G01 X-0.8587 Y1.2270  
G01 X-0.8588 Y1.2269  
G01 X-0.8600 Y1.2251  
G01 X-0.8612 Y1.2232  
G01 X-0.8613 Y1.2231  
G01 X-0.8614 Y1.2230  
G01 X-0.8631 Y1.2215  
G01 X-0.8647 Y1.2200  
G01 X-0.8649 Y1.2200  
G01 X-0.8650 Y1.2199  
G01 X-0.8670 Y1.2189  
G01 X-0.8690 Y1.2179  
G01 X-0.8691 Y1.2178  
G01 X-1.0520 Y1.1287  
G01 X-1.0520 Y0.7089  
G01 X-0.9354 Y0.6780  
G01 X-0.9328 Y0.6780  
G01 X-0.9178 Y0.6930  
G01 X-0.8822 Y0.6930  
G01 X-0.8672 Y0.6780  
G01 X-0.8609 Y0.6780  
G01 X-0.8594 Y0.6781  
G01 X-0.8585 Y0.6780  
G01 X-0.8576 Y0.6780  
G01 X-0.8562 Y0.6776  
G01 X-0.8365 Y0.6743  
G01 X-0.8178 Y0.6930  
G01 X-0.7822 Y0.6930  
G01 X-0.7570 Y0.6678  
G01 X-0.7570 Y0.6322  
G01 X-0.7822 Y0.6070  
G01 X-0.8178 Y0.6070  
G01 X-0.8365 Y0.6257  
G01 X-0.8420 Y0.6248  
G01 X-0.8420 Y0.5752  
G01 X-0.8365 Y0.5743  
G01 X-0.8178 Y0.5930  
G01 X-0.7822 Y0.5930  
G01 X-0.7570 Y0.5678  
G01 X-0.7570 Y0.5322  
G01 X-0.7822 Y0.5070  
G01 X-0.8178 Y0.5070  
G01 X-0.8365 Y0.5257  
G01 X-0.8420 Y0.5248  
G01 X-0.8420 Y0.4752  
G01 X-0.8365 Y0.4743  
G01 X-0.8178 Y0.4930  
G01 X-0.7822 Y0.4930  
G01 X-0.7572 Y0.4680  
G01 X-0.7226 Y0.4680  
G01 X-0.7181 Y0.4668  
G01 X-0.7139 Y0.4644  
G01 X-0.7106 Y0.4611  
G01 X-0.6856 Y0.4361  
G01 X-0.6832 Y0.4319  
G01 X-0.6820 Y0.4274  
G01 X-0.6820 Y0.3096  
G01 X-0.6195 Y0.2680  
G01 X-0.2060 Y0.2680  
G01 X-0.1164 Y0.3355  
G01 X-0.1164 Y0.4438  
G01 X-0.1199 Y0.4450  
G01 X-0.1278 Y0.4490  
G01 X-0.1349 Y0.4541  
G01 X-0.1411 Y0.4604  
G01 X-0.1463 Y0.4675  
G01 X-0.1503 Y0.4754  
G01 X-0.1530 Y0.4837  
G01 X-0.1544 Y0.4924  
G01 X-0.1544 Y0.6013  
G01 X-0.1530 Y0.6100  
G01 X-0.1503 Y0.6183  
G01 X-0.1463 Y0.6262  
G01 X-0.1411 Y0.6333  
G01 X-0.1349 Y0.6396  
G01 X-0.1278 Y0.6447  
G01 X-0.1199 Y0.6487  
G01 X-0.1115 Y0.6515  
G01 X-0.1028 Y0.6529  
G01 X-0.0940 Y0.6529  
G01 X-0.0853 Y0.6515  
G01 X-0.0769 Y0.6487  
G01 X-0.0691 Y0.6447  
G01 X-0.0619 Y0.6396  
G01 X-0.0557 Y0.6333  
G01 X-0.0505 Y0.6262  
G01 X-0.0465 Y0.6183  
G01 X-0.0438 Y0.6100  
G01 X-0.0424 Y0.6013  
G01 X-0.0424 Y0.4924  
G01 X-0.0438 Y0.4837  
G01 X-0.0465 Y0.4754  
G01 X-0.0505 Y0.4675  
G01 X-0.0557 Y0.4604  
G01 X-0.0619 Y0.4541  
G01 X-0.0691 Y0.4490  
G01 X-0.0769 Y0.4450  
G01 X-0.0804 Y0.4438  
G01 X-0.0804 Y0.3277  
G01 X-0.0803 Y0.3264  
G01 X-0.0804 Y0.3253  
G01 X-0.0804 Y0.3242  
G01 X-0.0808 Y0.3230  
G01 X-0.0809 Y0.3217  
G01 X-0.0814 Y0.3207  
G01 X-0.0817 Y0.3196  
G01 X-0.0823 Y0.3185  
G01 X-0.0828 Y0.3174  
G01 X-0.0835 Y0.3165  
G01 X-0.0840 Y0.3155  
G01 X-0.0849 Y0.3146  
G01 X-0.0857 Y0.3136  
G00 Z0.0500  
G00 X-0.4336 Y0.3128  
G01 Z-0.0040 F10    
G01 X-0.4388 Y0.3056  F20    
G01 X-0.4450 Y0.2994  
G01 X-0.4521 Y0.2942  
G01 X-0.4600 Y0.2902  
G01 X-0.4684 Y0.2875  
G01 X-0.4771 Y0.2861  
G01 X-0.5859 Y0.2861  
G01 X-0.5946 Y0.2875  
G01 X-0.6030 Y0.2902  
G01 X-0.6108 Y0.2942  
G01 X-0.6180 Y0.2994  
G01 X-0.6242 Y0.3056  
G01 X-0.6294 Y0.3128  
G01 X-0.6334 Y0.3206  
G01 X-0.6361 Y0.3290  
G01 X-0.6375 Y0.3377  
G01 X-0.6375 Y0.3465  
G01 X-0.6361 Y0.3552  
G01 X-0.6334 Y0.3636  
G01 X-0.6294 Y0.3715  
G01 X-0.6242 Y0.3786  
G01 X-0.6180 Y0.3848  
G01 X-0.6108 Y0.3900  
G01 X-0.6030 Y0.3940  
G01 X-0.5946 Y0.3967  
G01 X-0.5859 Y0.3981  
G01 X-0.4771 Y0.3981  
G01 X-0.4684 Y0.3967  
G01 X-0.4600 Y0.3940  
G01 X-0.4521 Y0.3900  
G01 X-0.4450 Y0.3848  
G01 X-0.4388 Y0.3786  
G01 X-0.4336 Y0.3715  
G01 X-0.4296 Y0.3636  
G01 X-0.4269 Y0.3552  
G01 X-0.4255 Y0.3465  
G01 X-0.4255 Y0.3377  
G01 X-0.4269 Y0.3290  
G01 X-0.4296 Y0.3206  
G01 X-0.4336 Y0.3128  
G00 Z0.0500  
G00 X-0.5754 Y0.4604  
G01 Z-0.0040 F10    
G01 X-0.5816 Y0.4541  F20    
G01 X-0.5888 Y0.4490  
G01 X-0.5966 Y0.4450  
G01 X-0.6050 Y0.4422  
G01 X-0.6137 Y0.4409  
G01 X-0.6225 Y0.4409  
G01 X-0.6312 Y0.4422  
G01 X-0.6396 Y0.4450  
G01 X-0.6475 Y0.4490  
G01 X-0.6546 Y0.4541  
G01 X-0.6608 Y0.4604  
G01 X-0.6660 Y0.4675  
G01 X-0.6700 Y0.4754  
G01 X-0.6727 Y0.4837  
G01 X-0.6741 Y0.4924  
G01 X-0.6741 Y0.6013  
G01 X-0.6727 Y0.6100  
G01 X-0.6700 Y0.6183  
G01 X-0.6660 Y0.6262  
G01 X-0.6608 Y0.6333  
G01 X-0.6546 Y0.6396  
G01 X-0.6475 Y0.6447  
G01 X-0.6396 Y0.6487  
G01 X-0.6312 Y0.6515  
G01 X-0.6225 Y0.6529  
G01 X-0.6180 Y0.6529  
G01 X-0.6180 Y0.8477  
G01 X-0.6320 Y0.8617  
G01 X-0.6320 Y0.8883  
G01 X-0.6133 Y0.9070  
G01 X-0.5867 Y0.9070  
G01 X-0.5680 Y0.8883  
G01 X-0.5680 Y0.8617  
G01 X-0.5820 Y0.8477  
G01 X-0.5820 Y0.6398  
G01 X-0.5816 Y0.6396  
G01 X-0.5754 Y0.6333  
G01 X-0.5702 Y0.6262  
G01 X-0.5662 Y0.6183  
G01 X-0.5635 Y0.6100  
G01 X-0.5621 Y0.6013  
G01 X-0.5621 Y0.4924  
G01 X-0.5635 Y0.4837  
G01 X-0.5662 Y0.4754  
G01 X-0.5702 Y0.4675  
G01 X-0.5754 Y0.4604  
G00 Z0.0500  
G00 X-0.7822 Y0.3930  
G01 Z-0.0040 F10    
G01 X-0.7570 Y0.3678  F20    
G01 X-0.7570 Y0.3322  
G01 X-0.7822 Y0.3070  
G01 X-0.8178 Y0.3070  
G01 X-0.8430 Y0.3322  
G01 X-0.8430 Y0.3389  
G01 X-0.8570 Y0.3413  
G01 X-0.8570 Y0.3322  
G01 X-0.8822 Y0.3070  
G01 X-0.9178 Y0.3070  
G01 X-0.9430 Y0.3322  
G01 X-0.9430 Y0.3422  
G01 X-0.9445 Y0.3426  
G01 X-0.9467 Y0.3431  
G01 X-0.9468 Y0.3432  
G01 X-0.9469 Y0.3432  
G01 X-0.9489 Y0.3443  
G01 X-0.9508 Y0.3454  
G01 X-0.9509 Y0.3455  
G01 X-0.9511 Y0.3456  
G01 X-0.9526 Y0.3472  
G01 X-0.9542 Y0.3487  
G01 X-0.9543 Y0.3488  
G01 X-0.9544 Y0.3489  
G01 X-0.9555 Y0.3509  
G01 X-0.9567 Y0.3528  
G01 X-0.9567 Y0.3529  
G01 X-0.9568 Y0.3531  
G01 X-0.9569 Y0.3536  
G01 X-1.1156 Y0.4178  
G01 X-1.1166 Y0.4181  
G01 X-1.1177 Y0.4187  
G01 X-1.1190 Y0.4192  
G01 X-1.1198 Y0.4199  
G01 X-1.1208 Y0.4204  
G01 X-1.1217 Y0.4213  
G01 X-1.1227 Y0.4221  
G01 X-1.1234 Y0.4229  
G01 X-1.1242 Y0.4237  
G01 X-1.1248 Y0.4248  
G01 X-1.1256 Y0.4258  
G01 X-1.1261 Y0.4268  
G01 X-1.1266 Y0.4277  
G01 X-1.1270 Y0.4290  
G01 X-1.1275 Y0.4302  
G01 X-1.1276 Y0.4312  
G01 X-1.1279 Y0.4323  
G01 X-1.1280 Y0.4336  
G01 X-1.1282 Y0.4349  
G01 X-1.1280 Y0.4359  
G01 X-1.1429 Y1.1723  
G01 X-1.1430 Y1.1747  
G01 X-1.1430 Y1.1770  
G01 X-1.1425 Y1.1794  
G01 X-1.1419 Y1.1816  
G01 X-1.1407 Y1.1837  
G01 X-1.1396 Y1.1858  
G01 X-1.1379 Y1.1875  
G01 X-1.1363 Y1.1892  
G01 X-1.1343 Y1.1904  
G01 X-1.1323 Y1.1916  
G01 X-1.0112 Y1.2643  
G01 X-0.9680 Y1.3075  
G01 X-0.9680 Y1.4235  
G01 X-0.9681 Y1.4243  
G01 X-0.9680 Y1.4258  
G01 X-0.9680 Y1.4274  
G01 X-0.9678 Y1.4282  
G01 X-0.9531 Y1.5850  
G01 X-0.9531 Y1.5856  
G01 X-0.9529 Y1.5873  
G01 X-0.9527 Y1.5890  
G01 X-0.9525 Y1.5897  
G01 X-0.9280 Y1.7367  
G01 X-0.9279 Y1.7377  
G01 X-0.9276 Y1.7390  
G01 X-0.9274 Y1.7403  
G01 X-0.9269 Y1.7413  
G01 X-0.8730 Y1.9277  
G01 X-0.8683 Y2.1820  
G01 X-0.9735 Y2.1820  
G01 X-0.9751 Y2.1796  
G01 X-0.9796 Y2.1751  
G01 X-0.9848 Y2.1716  
G01 X-0.9907 Y2.1692  
G01 X-0.9968 Y2.1680  
G01 X-1.0032 Y2.1680  
G01 X-1.0093 Y2.1692  
G01 X-1.0152 Y2.1716  
G01 X-1.0204 Y2.1751  
G01 X-1.0249 Y2.1796  
G01 X-1.0284 Y2.1848  
G01 X-1.0308 Y2.1907  
G01 X-1.0320 Y2.1968  
G01 X-1.0320 Y2.2032  
G01 X-1.0308 Y2.2093  
G01 X-1.0284 Y2.2152  
G01 X-1.0249 Y2.2204  
G01 X-1.0204 Y2.2249  
G01 X-1.0152 Y2.2284  
G01 X-1.0093 Y2.2308  
G01 X-1.0032 Y2.2320  
G01 X-0.9968 Y2.2320  
G01 X-0.9907 Y2.2308  
G01 X-0.9848 Y2.2284  
G01 X-0.9796 Y2.2249  
G01 X-0.9751 Y2.2204  
G01 X-0.9735 Y2.2180  
G01 X-0.8712 Y2.2180  
G01 X-0.8879 Y2.3180  
G01 X-0.8883 Y2.3180  
G01 X-0.9070 Y2.3367  
G01 X-0.9070 Y2.3633  
G01 X-0.8883 Y2.3820  
G01 X-0.8617 Y2.3820  
G01 X-0.8430 Y2.3633  
G01 X-0.8430 Y2.3367  
G01 X-0.8529 Y2.3269  
G01 X-0.8324 Y2.2038  
G01 X-0.8320 Y2.2024  
G01 X-0.8320 Y2.2022  
G01 X-0.8320 Y2.2020  
G01 X-0.8320 Y2.2013  
G01 X-0.8319 Y2.2006  
G01 X-0.8320 Y2.1991  
G01 X-0.8320 Y2.1976  
G01 X-0.8320 Y2.1975  
G01 X-0.8370 Y1.9270  
G01 X-0.8370 Y1.9247  
G01 X-0.8370 Y1.9223  
G01 X-0.8377 Y1.9201  
G01 X-0.8384 Y1.9177  
G01 X-0.8924 Y1.7310  
G01 X-0.9171 Y1.5827  
G01 X-0.9320 Y1.4242  
G01 X-0.9320 Y1.2976  
G01 X-0.9332 Y1.2931  
G01 X-0.9356 Y1.2889  
G01 X-0.9872 Y1.2374  
G01 X-0.9887 Y1.2358  
G01 X-0.9888 Y1.2357  
G01 X-0.9889 Y1.2356  
G01 X-0.9909 Y1.2345  
G01 X-1.1068 Y1.1649  
G01 X-1.0922 Y0.4472  
G01 X-0.9295 Y0.3813  
G01 X-0.9178 Y0.3930  
G01 X-0.8822 Y0.3930  
G01 X-0.8672 Y0.3780  
G01 X-0.8609 Y0.3780  
G01 X-0.8594 Y0.3781  
G01 X-0.8585 Y0.3780  
G01 X-0.8576 Y0.3780  
G01 X-0.8562 Y0.3776  
G01 X-0.8365 Y0.3743  
G01 X-0.8178 Y0.3930  
G01 X-0.7822 Y0.3930  
G00 Z0.0500  
G00 X-0.7822 Y0.7070  
G01 Z-0.0040 F10    
G01 X-0.8178 Y0.7070  F20    
G01 X-0.8418 Y0.7310  
G01 X-0.8586 Y0.7306  
G01 X-0.8822 Y0.7070  
G01 X-0.9178 Y0.7070  
G01 X-0.9394 Y0.7286  
G01 X-1.0025 Y0.7271  
G01 X-1.0029 Y0.7270  
G01 X-1.0049 Y0.7270  
G01 X-1.0069 Y0.7269  
G01 X-1.0073 Y0.7270  
G01 X-1.0076 Y0.7270  
G01 X-1.0096 Y0.7276  
G01 X-1.0115 Y0.7281  
G01 X-1.0118 Y0.7282  
G01 X-1.0122 Y0.7283  
G01 X-1.0139 Y0.7294  
G01 X-1.0157 Y0.7303  
G01 X-1.0160 Y0.7306  
G01 X-1.0163 Y0.7308  
G01 X-1.0177 Y0.7322  
G01 X-1.0191 Y0.7336  
G01 X-1.0193 Y0.7339  
G01 X-1.0196 Y0.7342  
G01 X-1.0205 Y0.7359  
G01 X-1.0216 Y0.7376  
G01 X-1.0217 Y0.7380  
G01 X-1.0219 Y0.7383  
G01 X-1.0224 Y0.7403  
G01 X-1.0229 Y0.7422  
G01 X-1.0229 Y0.7425  
G01 X-1.0230 Y0.7429  
G01 X-1.0230 Y0.7449  
G01 X-1.0231 Y0.7469  
G01 X-1.0230 Y0.7473  
G01 X-1.0180 Y1.0984  
G01 X-1.0181 Y1.0989  
G01 X-1.0180 Y1.1008  
G01 X-1.0180 Y1.1026  
G01 X-1.0178 Y1.1031  
G01 X-1.0178 Y1.1036  
G01 X-1.0172 Y1.1054  
G01 X-1.0167 Y1.1072  
G01 X-1.0164 Y1.1076  
G01 X-1.0162 Y1.1081  
G01 X-1.0152 Y1.1097  
G01 X-1.0142 Y1.1113  
G01 X-1.0139 Y1.1116  
G01 X-1.0136 Y1.1120  
G01 X-1.0122 Y1.1133  
G01 X-1.0108 Y1.1146  
G01 X-1.0104 Y1.1148  
G01 X-1.0100 Y1.1151  
G01 X-1.0083 Y1.1160  
G01 X-1.0067 Y1.1169  
G01 X-1.0062 Y1.1170  
G01 X-0.8223 Y1.2066  
G01 X-0.7931 Y1.6641  
G01 X-0.7931 Y1.6644  
G01 X-0.7929 Y1.6664  
G01 X-0.7928 Y1.6685  
G01 X-0.7927 Y1.6688  
G01 X-0.7927 Y1.6691  
G01 X-0.7920 Y1.6710  
G01 X-0.7913 Y1.6730  
G01 X-0.7911 Y1.6733  
G01 X-0.7910 Y1.6735  
G01 X-0.7898 Y1.6752  
G01 X-0.7887 Y1.6769  
G01 X-0.7884 Y1.6771  
G01 X-0.7818 Y1.6865  
G01 X-0.7820 Y1.6867  
G01 X-0.7820 Y1.7133  
G01 X-0.7633 Y1.7320  
G01 X-0.7435 Y1.7320  
G01 X-0.7420 Y1.7335  
G01 X-0.7216 Y1.8763  
G01 X-0.7249 Y1.8796  
G01 X-0.7284 Y1.8848  
G01 X-0.7308 Y1.8907  
G01 X-0.7320 Y1.8968  
G01 X-0.7320 Y1.9032  
G01 X-0.7308 Y1.9093  
G01 X-0.7284 Y1.9152  
G01 X-0.7249 Y1.9204  
G01 X-0.7204 Y1.9249  
G01 X-0.7152 Y1.9284  
G01 X-0.7093 Y1.9308  
G01 X-0.7032 Y1.9320  
G01 X-0.6968 Y1.9320  
G01 X-0.6907 Y1.9308  
G01 X-0.6848 Y1.9284  
G01 X-0.6796 Y1.9249  
G01 X-0.6751 Y1.9204  
G01 X-0.6716 Y1.9152  
G01 X-0.6692 Y1.9093  
G01 X-0.6680 Y1.9032  
G01 X-0.6680 Y1.8968  
G01 X-0.6692 Y1.8907  
G01 X-0.6716 Y1.8848  
G01 X-0.6751 Y1.8796  
G01 X-0.6796 Y1.8751  
G01 X-0.6848 Y1.8716  
G01 X-0.6859 Y1.8712  
G01 X-0.7070 Y1.7237  
G01 X-0.7070 Y1.7226  
G01 X-0.7073 Y1.7214  
G01 X-0.7075 Y1.7201  
G01 X-0.7079 Y1.7191  
G01 X-0.7082 Y1.7181  
G01 X-0.7089 Y1.7169  
G01 X-0.7094 Y1.7157  
G01 X-0.7101 Y1.7149  
G01 X-0.7106 Y1.7139  
G01 X-0.7115 Y1.7130  
G01 X-0.7123 Y1.7120  
G01 X-0.7132 Y1.7114  
G01 X-0.7180 Y1.7065  
G01 X-0.7180 Y1.6867  
G01 X-0.7367 Y1.6680  
G01 X-0.7507 Y1.6680  
G01 X-0.7574 Y1.6587  
G01 X-0.7869 Y1.1962  
G01 X-0.7870 Y1.1938  
G01 X-0.7872 Y1.1915  
G01 X-0.7872 Y1.1914  
G01 X-0.7880 Y1.1892  
G01 X-0.7887 Y1.1870  
G01 X-0.7888 Y1.1869  
G01 X-0.7900 Y1.1850  
G01 X-0.7913 Y1.1831  
G01 X-0.7932 Y1.1814  
G01 X-0.7949 Y1.1799  
G01 X-0.7971 Y1.1788  
G01 X-0.7991 Y1.1778  
G01 X-0.9822 Y1.0887  
G01 X-0.9867 Y0.7635  
G01 X-0.9575 Y0.7642  
G01 X-0.9574 Y0.7645  
G01 X-0.9569 Y0.7667  
G01 X-0.9568 Y0.7668  
G01 X-0.9568 Y0.7669  
G01 X-0.9557 Y0.7689  
G01 X-0.9546 Y0.7708  
G01 X-0.9545 Y0.7709  
G01 X-0.9544 Y0.7711  
G01 X-0.9528 Y0.7726  
G01 X-0.9513 Y0.7742  
G01 X-0.9512 Y0.7743  
G01 X-0.9511 Y0.7744  
G01 X-0.9491 Y0.7755  
G01 X-0.9472 Y0.7767  
G01 X-0.9471 Y0.7767  
G01 X-0.9469 Y0.7768  
G01 X-0.9448 Y0.7773  
G01 X-0.9427 Y0.7780  
G01 X-0.9425 Y0.7780  
G01 X-0.9424 Y0.7780  
G01 X-0.9401 Y0.7780  
G01 X-0.9379 Y0.7780  
G01 X-0.9378 Y0.7780  
G01 X-0.9328 Y0.7780  
G01 X-0.9178 Y0.7930  
G01 X-0.8822 Y0.7930  
G01 X-0.8672 Y0.7780  
G01 X-0.8609 Y0.7780  
G01 X-0.8594 Y0.7781  
G01 X-0.8585 Y0.7780  
G01 X-0.8576 Y0.7780  
G01 X-0.8562 Y0.7776  
G01 X-0.8365 Y0.7743  
G01 X-0.8178 Y0.7930  
G01 X-0.7822 Y0.7930  
G01 X-0.7570 Y0.7678  
G01 X-0.7570 Y0.7322  
G01 X-0.7822 Y0.7070  
G00 Z0.0500  
G00 X-0.7822 Y0.8070  
G01 Z-0.0040 F10    
G01 X-0.8178 Y0.8070  F20    
G01 X-0.8430 Y0.8322  
G01 X-0.8430 Y0.8678  
G01 X-0.8178 Y0.8930  
G01 X-0.7822 Y0.8930  
G01 X-0.7570 Y0.8678  
G01 X-0.7570 Y0.8322  
G01 X-0.7822 Y0.8070  
G00 Z0.0500  
G00 X-0.8570 Y0.8322  
G01 Z-0.0040 F10    
G01 X-0.8822 Y0.8070  F20    
G01 X-0.9178 Y0.8070  
G01 X-0.9430 Y0.8322  
G01 X-0.9430 Y0.8678  
G01 X-0.9178 Y0.8930  
G01 X-0.8822 Y0.8930  
G01 X-0.8570 Y0.8678  
G01 X-0.8570 Y0.8322  
G00 Z0.0500  
G00 X-0.8570 Y0.9322  
G01 Z-0.0040 F10    
G01 X-0.8822 Y0.9070  F20    
G01 X-0.9178 Y0.9070  
G01 X-0.9430 Y0.9322  
G01 X-0.9430 Y0.9422  
G01 X-0.9445 Y0.9426  
G01 X-0.9467 Y0.9431  
G01 X-0.9468 Y0.9432  
G01 X-0.9469 Y0.9432  
G01 X-0.9489 Y0.9443  
G01 X-0.9508 Y0.9454  
G01 X-0.9509 Y0.9455  
G01 X-0.9511 Y0.9456  
G01 X-0.9526 Y0.9472  
G01 X-0.9542 Y0.9487  
G01 X-0.9543 Y0.9488  
G01 X-0.9544 Y0.9489  
G01 X-0.9555 Y0.9509  
G01 X-0.9567 Y0.9528  
G01 X-0.9567 Y0.9529  
G01 X-0.9568 Y0.9531  
G01 X-0.9573 Y0.9552  
G01 X-0.9580 Y0.9573  
G01 X-0.9580 Y0.9575  
G01 X-0.9580 Y0.9576  
G01 X-0.9580 Y0.9599  
G01 X-0.9580 Y0.9621  
G01 X-0.9580 Y0.9622  
G01 X-0.9580 Y0.9624  
G01 X-0.9574 Y0.9645  
G01 X-0.9569 Y0.9667  
G01 X-0.9568 Y0.9668  
G01 X-0.9568 Y0.9669  
G01 X-0.9557 Y0.9689  
G01 X-0.9546 Y0.9708  
G01 X-0.9545 Y0.9709  
G01 X-0.9544 Y0.9711  
G01 X-0.9528 Y0.9726  
G01 X-0.9513 Y0.9742  
G01 X-0.9512 Y0.9743  
G01 X-0.9511 Y0.9744  
G01 X-0.9491 Y0.9755  
G01 X-0.9472 Y0.9767  
G01 X-0.9471 Y0.9767  
G01 X-0.9469 Y0.9768  
G01 X-0.9448 Y0.9773  
G01 X-0.9427 Y0.9780  
G01 X-0.9425 Y0.9780  
G01 X-0.9424 Y0.9780  
G01 X-0.9401 Y0.9780  
G01 X-0.9379 Y0.9780  
G01 X-0.9378 Y0.9780  
G01 X-0.9328 Y0.9780  
G01 X-0.9178 Y0.9930  
G01 X-0.8822 Y0.9930  
G01 X-0.8672 Y0.9780  
G01 X-0.8609 Y0.9780  
G01 X-0.8594 Y0.9781  
G01 X-0.8585 Y0.9780  
G01 X-0.8328 Y0.9780  
G01 X-0.8178 Y0.9930  
G01 X-0.7822 Y0.9930  
G01 X-0.7672 Y0.9780  
G01 X-0.4972 Y0.9780  
G01 X-0.0430 Y1.4077  
G01 X-0.0430 Y2.4425  
G01 X-0.1825 Y2.5820  
G01 X-0.4264 Y2.5820  
G01 X-0.4269 Y2.5790  
G01 X-0.4296 Y2.5706  
G01 X-0.4336 Y2.5628  
G01 X-0.4388 Y2.5556  
G01 X-0.4450 Y2.5494  
G01 X-0.4521 Y2.5442  
G01 X-0.4600 Y2.5402  
G01 X-0.4684 Y2.5375  
G01 X-0.4771 Y2.5361  
G01 X-0.5859 Y2.5361  
G01 X-0.5946 Y2.5375  
G01 X-0.6030 Y2.5402  
G01 X-0.6108 Y2.5442  
G01 X-0.6180 Y2.5494  
G01 X-0.6242 Y2.5556  
G01 X-0.6294 Y2.5628  
G01 X-0.6334 Y2.5706  
G01 X-0.6361 Y2.5790  
G01 X-0.6375 Y2.5877  
G01 X-0.6375 Y2.5965  
G01 X-0.6361 Y2.6052  
G01 X-0.6334 Y2.6136  
G01 X-0.6294 Y2.6215  
G01 X-0.6242 Y2.6286  
G01 X-0.6180 Y2.6348  
G01 X-0.6108 Y2.6400  
G01 X-0.6030 Y2.6440  
G01 X-0.5946 Y2.6467  
G01 X-0.5859 Y2.6481  
G01 X-0.4771 Y2.6481  
G01 X-0.4684 Y2.6467  
G01 X-0.4600 Y2.6440  
G01 X-0.4521 Y2.6400  
G01 X-0.4450 Y2.6348  
G01 X-0.4388 Y2.6286  
G01 X-0.4336 Y2.6215  
G01 X-0.4318 Y2.6180  
G01 X-0.1726 Y2.6180  
G01 X-0.1681 Y2.6168  
G01 X-0.1639 Y2.6144  
G01 X-0.1606 Y2.6111  
G01 X-0.0106 Y2.4611  
G01 X-0.0082 Y2.4569  
G01 X-0.0070 Y2.4524  
G01 X-0.0070 Y1.4021  
G01 X-0.0069 Y1.4019  
G01 X-0.0070 Y1.3998  
G01 X-0.0070 Y1.3976  
G01 X-0.0071 Y1.3974  
G01 X-0.0071 Y1.3971  
G01 X-0.0077 Y1.3951  
G01 X-0.0082 Y1.3931  
G01 X-0.0084 Y1.3928  
G01 X-0.0084 Y1.3926  
G01 X-0.0095 Y1.3908  
G01 X-0.0106 Y1.3889  
G01 X-0.0108 Y1.3888  
G01 X-0.0109 Y1.3886  
G01 X-0.0124 Y1.3871  
G01 X-0.0139 Y1.3856  
G01 X-0.0142 Y1.3855  
G01 X-0.4774 Y0.9471  
G01 X-0.4789 Y0.9456  
G01 X-0.4792 Y0.9455  
G01 X-0.4793 Y0.9453  
G01 X-0.4812 Y0.9443  
G01 X-0.4831 Y0.9432  
G01 X-0.4833 Y0.9432  
G01 X-0.4835 Y0.9430  
G01 X-0.4856 Y0.9425  
G01 X-0.4876 Y0.9420  
G01 X-0.4879 Y0.9420  
G01 X-0.4881 Y0.9419  
G01 X-0.4902 Y0.9420  
G01 X-0.7570 Y0.9420  
G01 X-0.7570 Y0.9322  
G01 X-0.7822 Y0.9070  
G01 X-0.8178 Y0.9070  
G01 X-0.8430 Y0.9322  
G01 X-0.8430 Y0.9389  
G01 X-0.8570 Y0.9413  
G01 X-0.8570 Y0.9322  
G00 Z0.0500  
G00 X-0.8570 Y1.0322  
G01 Z-0.0040 F10    
G01 X-0.8822 Y1.0070  F20    
G01 X-0.9178 Y1.0070  
G01 X-0.9430 Y1.0322  
G01 X-0.9430 Y1.0678  
G01 X-0.9178 Y1.0930  
G01 X-0.8822 Y1.0930  
G01 X-0.8570 Y1.0678  
G01 X-0.8570 Y1.0322  
G00 Z0.0500  
G00 X-0.8430 Y1.0322  
G01 Z-0.0040 F10    
G01 X-0.8430 Y1.0678  F20    
G01 X-0.8178 Y1.0930  
G01 X-0.7822 Y1.0930  
G01 X-0.7570 Y1.0678  
G01 X-0.7570 Y1.0322  
G01 X-0.7822 Y1.0070  
G01 X-0.8178 Y1.0070  
G01 X-0.8430 Y1.0322  
G00 Z0.0500  
G00 X-0.6870 Y1.0613  
G01 Z-0.0040 F10    
G01 X-0.6881 Y1.0627  F20    
G01 X-0.6894 Y1.0639  
G01 X-0.6897 Y1.0645  
G01 X-0.6901 Y1.0649  
G01 X-0.6909 Y1.0665  
G01 X-0.6918 Y1.0681  
G01 X-0.6919 Y1.0686  
G01 X-0.6922 Y1.0691  
G01 X-0.6925 Y1.0709  
G01 X-0.6930 Y1.0726  
G01 X-0.6930 Y1.0732  
G01 X-0.7370 Y1.2930  
G01 X-0.7383 Y1.2930  
G01 X-0.7570 Y1.3117  
G01 X-0.7570 Y1.3383  
G01 X-0.7383 Y1.3570  
G01 X-0.7117 Y1.3570  
G01 X-0.6930 Y1.3383  
G01 X-0.6930 Y1.3117  
G01 X-0.7022 Y1.3026  
G01 X-0.6602 Y1.0930  
G01 X-0.5325 Y1.0930  
G01 X-0.4180 Y1.2075  
G01 X-0.4180 Y1.8015  
G01 X-0.4201 Y1.8015  
G01 X-0.4485 Y1.8299  
G01 X-0.4485 Y1.8701  
G01 X-0.4201 Y1.8985  
G01 X-0.3799 Y1.8985  
G01 X-0.3594 Y1.8780  
G01 X-0.3475 Y1.8780  
G01 X-0.1450 Y2.0804  
G01 X-0.1454 Y2.0812  
G01 X-0.1478 Y2.0885  
G01 X-0.1490 Y2.0961  
G01 X-0.1490 Y2.1039  
G01 X-0.1478 Y2.1115  
G01 X-0.1454 Y2.1188  
G01 X-0.1419 Y2.1257  
G01 X-0.1374 Y2.1319  
G01 X-0.1319 Y2.1374  
G01 X-0.1257 Y2.1419  
G01 X-0.1188 Y2.1454  
G01 X-0.1115 Y2.1478  
G01 X-0.1039 Y2.1490  
G01 X-0.0961 Y2.1490  
G01 X-0.0885 Y2.1478  
G01 X-0.0812 Y2.1454  
G01 X-0.0743 Y2.1419  
G01 X-0.0681 Y2.1374  
G01 X-0.0626 Y2.1319  
G01 X-0.0581 Y2.1257  
G01 X-0.0546 Y2.1188  
G01 X-0.0522 Y2.1115  
G01 X-0.0510 Y2.1039  
G01 X-0.0510 Y2.0961  
G01 X-0.0522 Y2.0885  
G01 X-0.0546 Y2.0812  
G01 X-0.0581 Y2.0743  
G01 X-0.0626 Y2.0681  
G01 X-0.0681 Y2.0626  
G01 X-0.0743 Y2.0581  
G01 X-0.0812 Y2.0546  
G01 X-0.0885 Y2.0522  
G01 X-0.0961 Y2.0510  
G01 X-0.1039 Y2.0510  
G01 X-0.1115 Y2.0522  
G01 X-0.1188 Y2.0546  
G01 X-0.1196 Y2.0550  
G01 X-0.3289 Y1.8456  
G01 X-0.3331 Y1.8432  
G01 X-0.3376 Y1.8420  
G01 X-0.3515 Y1.8420  
G01 X-0.3515 Y1.8299  
G01 X-0.3799 Y1.8015  
G01 X-0.3820 Y1.8015  
G01 X-0.3820 Y1.1976  
G01 X-0.3832 Y1.1931  
G01 X-0.3856 Y1.1889  
G01 X-0.3889 Y1.1856  
G01 X-0.5139 Y1.0606  
G01 X-0.5181 Y1.0582  
G01 X-0.5226 Y1.0570  
G01 X-0.6732 Y1.0570  
G01 X-0.6738 Y1.0569  
G01 X-0.6756 Y1.0570  
G01 X-0.6774 Y1.0570  
G01 X-0.6779 Y1.0572  
G01 X-0.6785 Y1.0572  
G01 X-0.6802 Y1.0578  
G01 X-0.6819 Y1.0582  
G01 X-0.6825 Y1.0585  
G01 X-0.6830 Y1.0587  
G01 X-0.6845 Y1.0597  
G01 X-0.6861 Y1.0606  
G01 X-0.6865 Y1.0610  
G01 X-0.6870 Y1.0613  
G00 Z0.0500  
G00 X-0.6133 Y1.1430  
G01 Z-0.0040 F10    
G01 X-0.6320 Y1.1617  F20    
G01 X-0.6320 Y1.1883  
G01 X-0.6213 Y1.1989  
G01 X-0.6276 Y1.2455  
G01 X-0.6276 Y1.2457  
G01 X-0.6279 Y1.2479  
G01 X-0.6282 Y1.2500  
G01 X-0.6281 Y1.2502  
G01 X-0.6426 Y1.3851  
G01 X-0.7049 Y1.5180  
G01 X-0.7133 Y1.5180  
G01 X-0.7320 Y1.5367  
G01 X-0.7320 Y1.5633  
G01 X-0.7133 Y1.5820  
G01 X-0.6867 Y1.5820  
G01 X-0.6827 Y1.5780  
G01 X-0.6262 Y1.5780  
G01 X-0.6250 Y1.5782  
G01 X-0.6238 Y1.5780  
G01 X-0.6226 Y1.5780  
G01 X-0.6215 Y1.5777  
G01 X-0.5843 Y1.5727  
G01 X-0.6155 Y1.6258  
G01 X-0.6167 Y1.6278  
G01 X-0.6167 Y1.6279  
G01 X-0.6173 Y1.6301  
G01 X-0.6273 Y1.6650  
G01 X-0.6520 Y1.7492  
G01 X-0.6526 Y1.7507  
G01 X-0.6527 Y1.7514  
G01 X-0.6529 Y1.7522  
G01 X-0.6530 Y1.7538  
G01 X-0.6577 Y1.7967  
G01 X-0.6580 Y1.7976  
G01 X-0.6580 Y1.7990  
G01 X-0.6582 Y1.8004  
G01 X-0.6580 Y1.8014  
G01 X-0.6580 Y1.9325  
G01 X-0.6940 Y1.9686  
G01 X-0.6968 Y1.9680  
G01 X-0.7032 Y1.9680  
G01 X-0.7093 Y1.9692  
G01 X-0.7152 Y1.9716  
G01 X-0.7204 Y1.9751  
G01 X-0.7249 Y1.9796  
G01 X-0.7284 Y1.9848  
G01 X-0.7308 Y1.9907  
G01 X-0.7320 Y1.9968  
G01 X-0.7320 Y2.0032  
G01 X-0.7308 Y2.0093  
G01 X-0.7284 Y2.0152  
G01 X-0.7249 Y2.0204  
G01 X-0.7204 Y2.0249  
G01 X-0.7152 Y2.0284  
G01 X-0.7093 Y2.0308  
G01 X-0.7032 Y2.0320  
G01 X-0.6968 Y2.0320  
G01 X-0.6907 Y2.0308  
G01 X-0.6848 Y2.0284  
G01 X-0.6796 Y2.0249  
G01 X-0.6751 Y2.0204  
G01 X-0.6716 Y2.0152  
G01 X-0.6692 Y2.0093  
G01 X-0.6680 Y2.0032  
G01 X-0.6680 Y1.9968  
G01 X-0.6686 Y1.9940  
G01 X-0.6289 Y1.9544  
G01 X-0.6256 Y1.9511  
G01 X-0.6232 Y1.9469  
G01 X-0.6220 Y1.9424  
G01 X-0.6220 Y1.8010  
G01 X-0.6173 Y1.7586  
G01 X-0.5934 Y1.6773  
G01 X-0.5927 Y1.6750  
G01 X-0.5921 Y1.6728  
G01 X-0.5833 Y1.6421  
G01 X-0.5479 Y1.5820  
G01 X-0.5367 Y1.5820  
G01 X-0.5180 Y1.5633  
G01 X-0.5180 Y1.5367  
G01 X-0.5367 Y1.5180  
G01 X-0.5633 Y1.5180  
G01 X-0.5813 Y1.5360  
G01 X-0.6262 Y1.5420  
G01 X-0.6680 Y1.5420  
G01 X-0.6680 Y1.5367  
G01 X-0.6720 Y1.5327  
G01 X-0.6094 Y1.3992  
G01 X-0.6091 Y1.3987  
G01 X-0.6084 Y1.3971  
G01 X-0.6077 Y1.3955  
G01 X-0.6076 Y1.3949  
G01 X-0.6074 Y1.3943  
G01 X-0.6072 Y1.3925  
G01 X-0.6069 Y1.3908  
G01 X-0.6069 Y1.3902  
G01 X-0.5921 Y1.2522  
G01 X-0.5860 Y1.2063  
G01 X-0.5680 Y1.1883  
G01 X-0.5680 Y1.1617  
G01 X-0.5867 Y1.1430  
G01 X-0.6133 Y1.1430  
G00 Z0.0500  
G00 X-0.9930 Y1.3117  
G01 Z-0.0040 F10    
G01 X-1.0117 Y1.2930  F20    
G01 X-1.0383 Y1.2930  
G01 X-1.0570 Y1.3117  
G01 X-1.0570 Y1.3383  
G01 X-1.0518 Y1.3435  
G01 X-1.0912 Y1.4421  
G01 X-1.0918 Y1.4431  
G01 X-1.0921 Y1.4443  
G01 X-1.0926 Y1.4455  
G01 X-1.0927 Y1.4466  
G01 X-1.0930 Y1.4476  
G01 X-1.0930 Y1.4489  
G01 X-1.0932 Y1.4502  
G01 X-1.0930 Y1.4513  
G01 X-1.0930 Y1.6227  
G01 X-1.0930 Y1.6250  
G01 X-1.0930 Y1.6274  
G01 X-1.0924 Y1.6297  
G01 X-1.0918 Y1.6319  
G01 X-1.0244 Y1.8791  
G01 X-1.0249 Y1.8796  
G01 X-1.0284 Y1.8848  
G01 X-1.0308 Y1.8907  
G01 X-1.0320 Y1.8968  
G01 X-1.0320 Y1.9032  
G01 X-1.0308 Y1.9093  
G01 X-1.0284 Y1.9152  
G01 X-1.0249 Y1.9204  
G01 X-1.0204 Y1.9249  
G01 X-1.0152 Y1.9284  
G01 X-1.0093 Y1.9308  
G01 X-1.0032 Y1.9320  
G01 X-0.9968 Y1.9320  
G01 X-0.9907 Y1.9308  
G01 X-0.9848 Y1.9284  
G01 X-0.9796 Y1.9249  
G01 X-0.9751 Y1.9204  
G01 X-0.9716 Y1.9152  
G01 X-0.9692 Y1.9093  
G01 X-0.9680 Y1.9032  
G01 X-0.9680 Y1.8968  
G01 X-0.9692 Y1.8907  
G01 X-0.9716 Y1.8848  
G01 X-0.9751 Y1.8796  
G01 X-0.9796 Y1.8751  
G01 X-0.9848 Y1.8716  
G01 X-0.9896 Y1.8697  
G01 X-1.0570 Y1.6226  
G01 X-1.0570 Y1.4535  
G01 X-1.0184 Y1.3570  
G01 X-1.0117 Y1.3570  
G01 X-0.9930 Y1.3383  
G01 X-0.9930 Y1.3117  
G00 Z0.0500  
G00 X-0.9867 Y1.5180  
G01 Z-0.0040 F10    
G01 X-1.0133 Y1.5180  F20    
G01 X-1.0320 Y1.5367  
G01 X-1.0320 Y1.5633  
G01 X-1.0180 Y1.5773  
G01 X-1.0180 Y1.5994  
G01 X-1.0181 Y1.6012  
G01 X-1.0180 Y1.6018  
G01 X-1.0180 Y1.6024  
G01 X-1.0175 Y1.6041  
G01 X-0.9930 Y1.7269  
G01 X-0.9930 Y1.7277  
G01 X-0.9925 Y1.7292  
G01 X-0.9922 Y1.7309  
G01 X-0.9919 Y1.7315  
G01 X-0.9430 Y1.9025  
G01 X-0.9430 Y2.0175  
G01 X-0.9940 Y2.0686  
G01 X-0.9968 Y2.0680  
G01 X-1.0032 Y2.0680  
G01 X-1.0093 Y2.0692  
G01 X-1.0152 Y2.0716  
G01 X-1.0204 Y2.0751  
G01 X-1.0249 Y2.0796  
G01 X-1.0284 Y2.0848  
G01 X-1.0308 Y2.0907  
G01 X-1.0320 Y2.0968  
G01 X-1.0320 Y2.1032  
G01 X-1.0308 Y2.1093  
G01 X-1.0284 Y2.1152  
G01 X-1.0249 Y2.1204  
G01 X-1.0204 Y2.1249  
G01 X-1.0152 Y2.1284  
G01 X-1.0093 Y2.1308  
G01 X-1.0032 Y2.1320  
G01 X-0.9968 Y2.1320  
G01 X-0.9907 Y2.1308  
G01 X-0.9848 Y2.1284  
G01 X-0.9796 Y2.1249  
G01 X-0.9751 Y2.1204  
G01 X-0.9716 Y2.1152  
G01 X-0.9692 Y2.1093  
G01 X-0.9680 Y2.1032  
G01 X-0.9680 Y2.0968  
G01 X-0.9686 Y2.0940  
G01 X-0.9106 Y2.0361  
G01 X-0.9082 Y2.0319  
G01 X-0.9070 Y2.0274  
G01 X-0.9070 Y1.9022  
G01 X-0.9070 Y1.9021  
G01 X-0.9070 Y1.8999  
G01 X-0.9070 Y1.8976  
G01 X-0.9070 Y1.8975  
G01 X-0.9070 Y1.8973  
G01 X-0.9077 Y1.8952  
G01 X-0.9082 Y1.8931  
G01 X-0.9083 Y1.8929  
G01 X-0.9575 Y1.7208  
G01 X-0.9820 Y1.5982  
G01 X-0.9820 Y1.5773  
G01 X-0.9680 Y1.5633  
G01 X-0.9680 Y1.5367  
G01 X-0.9867 Y1.5180  
G00 Z0.0500  
G00 X-0.9907 Y1.9692  
G01 Z-0.0040 F10    
G01 X-0.9968 Y1.9680  F20    
G01 X-1.0032 Y1.9680  
G01 X-1.0093 Y1.9692  
G01 X-1.0152 Y1.9716  
G01 X-1.0204 Y1.9751  
G01 X-1.0249 Y1.9796  
G01 X-1.0284 Y1.9848  
G01 X-1.0308 Y1.9907  
G01 X-1.0320 Y1.9968  
G01 X-1.0320 Y1.9997  
G01 X-1.0845 Y2.0347  
G01 X-1.0861 Y2.0356  
G01 X-1.0865 Y2.0360  
G01 X-1.0870 Y2.0363  
G01 X-1.0881 Y2.0377  
G01 X-1.0894 Y2.0389  
G01 X-1.0897 Y2.0395  
G01 X-1.0901 Y2.0399  
G01 X-1.0909 Y2.0415  
G01 X-1.0918 Y2.0431  
G01 X-1.0919 Y2.0436  
G01 X-1.0922 Y2.0441  
G01 X-1.0925 Y2.0459  
G01 X-1.0930 Y2.0476  
G01 X-1.0930 Y2.0482  
G01 X-1.0931 Y2.0488  
G01 X-1.0930 Y2.0506  
G01 X-1.0930 Y2.2524  
G01 X-1.0918 Y2.2569  
G01 X-1.0894 Y2.2611  
G01 X-1.0424 Y2.3080  
G01 X-1.0200 Y2.5997  
G01 X-1.0320 Y2.6117  
G01 X-1.0320 Y2.6383  
G01 X-1.0133 Y2.6570  
G01 X-0.9867 Y2.6570  
G01 X-0.9680 Y2.6383  
G01 X-0.9680 Y2.6117  
G01 X-0.9842 Y2.5955  
G01 X-1.0070 Y2.2993  
G01 X-1.0070 Y2.2976  
G01 X-1.0072 Y2.2970  
G01 X-1.0072 Y2.2963  
G01 X-1.0078 Y2.2947  
G01 X-1.0082 Y2.2931  
G01 X-1.0086 Y2.2924  
G01 X-1.0088 Y2.2918  
G01 X-1.0098 Y2.2904  
G01 X-1.0106 Y2.2889  
G01 X-1.0111 Y2.2885  
G01 X-1.0115 Y2.2879  
G01 X-1.0128 Y2.2868  
G01 X-1.0570 Y2.2425  
G01 X-1.0570 Y2.0596  
G01 X-1.0120 Y2.0297  
G01 X-1.0093 Y2.0308  
G01 X-1.0032 Y2.0320  
G01 X-0.9968 Y2.0320  
G01 X-0.9907 Y2.0308  
G01 X-0.9848 Y2.0284  
G01 X-0.9796 Y2.0249  
G01 X-0.9751 Y2.0204  
G01 X-0.9716 Y2.0152  
G01 X-0.9692 Y2.0093  
G01 X-0.9680 Y2.0032  
G01 X-0.9680 Y1.9968  
G01 X-0.9692 Y1.9907  
G01 X-0.9716 Y1.9848  
G01 X-0.9751 Y1.9796  
G01 X-0.9796 Y1.9751  
G01 X-0.9848 Y1.9716  
G01 X-0.9907 Y1.9692  
G00 Z0.0500  
G00 X-0.7204 Y2.0751  
G01 Z-0.0040 F10    
G01 X-0.7249 Y2.0796  F20    
G01 X-0.7284 Y2.0848  
G01 X-0.7308 Y2.0907  
G01 X-0.7320 Y2.0968  
G01 X-0.7320 Y2.1032  
G01 X-0.7308 Y2.1093  
G01 X-0.7284 Y2.1152  
G01 X-0.7249 Y2.1204  
G01 X-0.7204 Y2.1249  
G01 X-0.7152 Y2.1284  
G01 X-0.7093 Y2.1308  
G01 X-0.7032 Y2.1320  
G01 X-0.6968 Y2.1320  
G01 X-0.6907 Y2.1308  
G01 X-0.6848 Y2.1284  
G01 X-0.6796 Y2.1249  
G01 X-0.6776 Y2.1229  
G01 X-0.6430 Y2.1575  
G01 X-0.6430 Y2.3274  
G01 X-0.6418 Y2.3319  
G01 X-0.6394 Y2.3361  
G01 X-0.5320 Y2.4435  
G01 X-0.5320 Y2.4792  
G01 X-0.5308 Y2.4853  
G01 X-0.5284 Y2.4912  
G01 X-0.5249 Y2.4964  
G01 X-0.5204 Y2.5009  
G01 X-0.5152 Y2.5044  
G01 X-0.5093 Y2.5068  
G01 X-0.5032 Y2.5080  
G01 X-0.4968 Y2.5080  
G01 X-0.4907 Y2.5068  
G01 X-0.4848 Y2.5044  
G01 X-0.4796 Y2.5009  
G01 X-0.4751 Y2.4964  
G01 X-0.4716 Y2.4912  
G01 X-0.4692 Y2.4853  
G01 X-0.4680 Y2.4792  
G01 X-0.4680 Y2.4680  
G01 X-0.3820 Y2.4680  
G01 X-0.3820 Y2.4792  
G01 X-0.3808 Y2.4853  
G01 X-0.3784 Y2.4912  
G01 X-0.3749 Y2.4964  
G01 X-0.3704 Y2.5009  
G01 X-0.3652 Y2.5044  
G01 X-0.3593 Y2.5068  
G01 X-0.3532 Y2.5080  
G01 X-0.3468 Y2.5080  
G01 X-0.3407 Y2.5068  
G01 X-0.3348 Y2.5044  
G01 X-0.3296 Y2.5009  
G01 X-0.3251 Y2.4964  
G01 X-0.3216 Y2.4912  
G01 X-0.3192 Y2.4853  
G01 X-0.3180 Y2.4792  
G01 X-0.3180 Y2.4580  
G01 X-0.2376 Y2.4580  
G01 X-0.2331 Y2.4568  
G01 X-0.2289 Y2.4544  
G01 X-0.2256 Y2.4511  
G01 X-0.1173 Y2.3428  
G01 X-0.1115 Y2.3446  
G01 X-0.1039 Y2.3459  
G01 X-0.0961 Y2.3459  
G01 X-0.0885 Y2.3446  
G01 X-0.0812 Y2.3423  
G01 X-0.0743 Y2.3388  
G01 X-0.0681 Y2.3342  
G01 X-0.0626 Y2.3288  
G01 X-0.0581 Y2.3225  
G01 X-0.0546 Y2.3157  
G01 X-0.0522 Y2.3083  
G01 X-0.0510 Y2.3007  
G01 X-0.0510 Y2.2930  
G01 X-0.0522 Y2.2854  
G01 X-0.0546 Y2.2780  
G01 X-0.0581 Y2.2712  
G01 X-0.0626 Y2.2649  
G01 X-0.0681 Y2.2595  
G01 X-0.0743 Y2.2549  
G01 X-0.0812 Y2.2514  
G01 X-0.0885 Y2.2491  
G01 X-0.0961 Y2.2479  
G01 X-0.1039 Y2.2479  
G01 X-0.1115 Y2.2491  
G01 X-0.1188 Y2.2514  
G01 X-0.1257 Y2.2549  
G01 X-0.1319 Y2.2595  
G01 X-0.1374 Y2.2649  
G01 X-0.1419 Y2.2712  
G01 X-0.1454 Y2.2780  
G01 X-0.1478 Y2.2854  
G01 X-0.1490 Y2.2930  
G01 X-0.1490 Y2.3007  
G01 X-0.1478 Y2.3083  
G01 X-0.1454 Y2.3157  
G01 X-0.1440 Y2.3185  
G01 X-0.2475 Y2.4220  
G01 X-0.3180 Y2.4220  
G01 X-0.3180 Y2.4208  
G01 X-0.3192 Y2.4147  
G01 X-0.3216 Y2.4088  
G01 X-0.3251 Y2.4036  
G01 X-0.3296 Y2.3991  
G01 X-0.3348 Y2.3956  
G01 X-0.3407 Y2.3932  
G01 X-0.3468 Y2.3920  
G01 X-0.3532 Y2.3920  
G01 X-0.3593 Y2.3932  
G01 X-0.3652 Y2.3956  
G01 X-0.3704 Y2.3991  
G01 X-0.3749 Y2.4036  
G01 X-0.3784 Y2.4088  
G01 X-0.3808 Y2.4147  
G01 X-0.3820 Y2.4208  
G01 X-0.3820 Y2.4320  
G01 X-0.4680 Y2.4320  
G01 X-0.4680 Y2.4208  
G01 X-0.4692 Y2.4147  
G01 X-0.4716 Y2.4088  
G01 X-0.4751 Y2.4036  
G01 X-0.4796 Y2.3991  
G01 X-0.4848 Y2.3956  
G01 X-0.4907 Y2.3932  
G01 X-0.4968 Y2.3920  
G01 X-0.5032 Y2.3920  
G01 X-0.5093 Y2.3932  
G01 X-0.5152 Y2.3956  
G01 X-0.5204 Y2.3991  
G01 X-0.5229 Y2.4016  
G01 X-0.6070 Y2.3175  
G01 X-0.6070 Y2.1476  
G01 X-0.6082 Y2.1431  
G01 X-0.6106 Y2.1389  
G01 X-0.6139 Y2.1356  
G01 X-0.6583 Y2.0912  
G01 X-0.5895 Y2.0396  
G01 X-0.5878 Y2.0385  
G01 X-0.5876 Y2.0382  
G01 X-0.5873 Y2.0380  
G01 X-0.5861 Y2.0364  
G01 X-0.5847 Y2.0348  
G01 X-0.5846 Y2.0345  
G01 X-0.5844 Y2.0343  
G01 X-0.5836 Y2.0324  
G01 X-0.5827 Y2.0306  
G01 X-0.5827 Y2.0302  
G01 X-0.5825 Y2.0299  
G01 X-0.5822 Y2.0279  
G01 X-0.5375 Y1.7820  
G01 X-0.5367 Y1.7820  
G01 X-0.5180 Y1.7633  
G01 X-0.5180 Y1.7367  
G01 X-0.5367 Y1.7180  
G01 X-0.5633 Y1.7180  
G01 X-0.5820 Y1.7367  
G01 X-0.5820 Y1.7633  
G01 X-0.5724 Y1.7728  
G01 X-0.6164 Y2.0148  
G01 X-0.6896 Y2.0697  
G01 X-0.6907 Y2.0692  
G01 X-0.6968 Y2.0680  
G01 X-0.7032 Y2.0680  
G01 X-0.7093 Y2.0692  
G01 X-0.7152 Y2.0716  
G01 X-0.7204 Y2.0751  
G00 Z0.0500  
G00 X-0.5204 Y2.0991  
G01 Z-0.0040 F10    
G01 X-0.5249 Y2.1036  F20    
G01 X-0.5284 Y2.1088  
G01 X-0.5308 Y2.1147  
G01 X-0.5320 Y2.1208  
G01 X-0.5320 Y2.1792  
G01 X-0.5308 Y2.1853  
G01 X-0.5284 Y2.1912  
G01 X-0.5249 Y2.1964  
G01 X-0.5204 Y2.2009  
G01 X-0.5152 Y2.2044  
G01 X-0.5093 Y2.2068  
G01 X-0.5032 Y2.2080  
G01 X-0.4968 Y2.2080  
G01 X-0.4907 Y2.2068  
G01 X-0.4848 Y2.2044  
G01 X-0.4796 Y2.2009  
G01 X-0.4751 Y2.1964  
G01 X-0.4716 Y2.1912  
G01 X-0.4692 Y2.1853  
G01 X-0.4680 Y2.1792  
G01 X-0.4680 Y2.1208  
G01 X-0.4692 Y2.1147  
G01 X-0.4716 Y2.1088  
G01 X-0.4751 Y2.1036  
G01 X-0.4796 Y2.0991  
G01 X-0.4820 Y2.0975  
G01 X-0.4820 Y2.0485  
G01 X-0.4799 Y2.0485  
G01 X-0.4515 Y2.0201  
G01 X-0.4515 Y1.9799  
G01 X-0.4799 Y1.9515  
G01 X-0.5201 Y1.9515  
G01 X-0.5485 Y1.9799  
G01 X-0.5485 Y2.0201  
G01 X-0.5201 Y2.0485  
G01 X-0.5180 Y2.0485  
G01 X-0.5180 Y2.0975  
G01 X-0.5204 Y2.0991  
G00 Z0.0500  
G00 X-0.3780 Y2.1083  
G01 Z-0.0040 F10    
G01 X-0.3784 Y2.1088  F20    
G01 X-0.3808 Y2.1147  
G01 X-0.3820 Y2.1208  
G01 X-0.3820 Y2.1792  
G01 X-0.3808 Y2.1853  
G01 X-0.3784 Y2.1912  
G01 X-0.3749 Y2.1964  
G01 X-0.3704 Y2.2009  
G01 X-0.3652 Y2.2044  
G01 X-0.3593 Y2.2068  
G01 X-0.3532 Y2.2080  
G01 X-0.3468 Y2.2080  
G01 X-0.3407 Y2.2068  
G01 X-0.3348 Y2.2044  
G01 X-0.3296 Y2.2009  
G01 X-0.3251 Y2.1964  
G01 X-0.3216 Y2.1912  
G01 X-0.3192 Y2.1853  
G01 X-0.3180 Y2.1792  
G01 X-0.3180 Y2.1208  
G01 X-0.3192 Y2.1147  
G01 X-0.3216 Y2.1088  
G01 X-0.3251 Y2.1036  
G01 X-0.3296 Y2.0991  
G01 X-0.3348 Y2.0956  
G01 X-0.3407 Y2.0932  
G01 X-0.3420 Y2.0930  
G01 X-0.3420 Y2.0356  
G01 X-0.3265 Y2.0201  
G01 X-0.3265 Y1.9799  
G01 X-0.3549 Y1.9515  
G01 X-0.3951 Y1.9515  
G01 X-0.4235 Y1.9799  
G01 X-0.4235 Y2.0201  
G01 X-0.3951 Y2.0485  
G01 X-0.3780 Y2.0485  
G01 X-0.3780 Y2.1083  
G00 Z0.0500  
G00 X-0.1374 Y1.9351  
G01 Z-0.0040 F10    
G01 X-0.1319 Y1.9405  F20    
G01 X-0.1257 Y1.9451  
G01 X-0.1188 Y1.9486  
G01 X-0.1115 Y1.9509  
G01 X-0.1039 Y1.9521  
G01 X-0.0961 Y1.9521  
G01 X-0.0885 Y1.9509  
G01 X-0.0812 Y1.9486  
G01 X-0.0743 Y1.9451  
G01 X-0.0681 Y1.9405  
G01 X-0.0626 Y1.9351  
G01 X-0.0581 Y1.9288  
G01 X-0.0546 Y1.9220  
G01 X-0.0522 Y1.9146  
G01 X-0.0510 Y1.9070  
G01 X-0.0510 Y1.8993  
G01 X-0.0522 Y1.8917  
G01 X-0.0546 Y1.8843  
G01 X-0.0581 Y1.8775  
G01 X-0.0626 Y1.8712  
G01 X-0.0681 Y1.8658  
G01 X-0.0743 Y1.8612  
G01 X-0.0812 Y1.8577  
G01 X-0.0885 Y1.8554  
G01 X-0.0961 Y1.8541  
G01 X-0.1039 Y1.8541  
G01 X-0.1115 Y1.8554  
G01 X-0.1188 Y1.8577  
G01 X-0.1257 Y1.8612  
G01 X-0.1319 Y1.8658  
G01 X-0.1374 Y1.8712  
G01 X-0.1419 Y1.8775  
G01 X-0.1454 Y1.8843  
G01 X-0.1478 Y1.8917  
G01 X-0.1490 Y1.8993  
G01 X-0.1490 Y1.9070  
G01 X-0.1478 Y1.9146  
G01 X-0.1454 Y1.9220  
G01 X-0.1419 Y1.9288  
G01 X-0.1374 Y1.9351  
G00 Z0.0500  
G00 X-0.6680 Y2.6117  
G01 Z-0.0040 F10    
G01 X-0.6867 Y2.5930  F20    
G01 X-0.7133 Y2.5930  
G01 X-0.7320 Y2.6117  
G01 X-0.7320 Y2.6383  
G01 X-0.7133 Y2.6570  
G01 X-0.7053 Y2.6570  
G01 X-0.6719 Y2.7313  
G01 X-0.6727 Y2.7337  
G01 X-0.6741 Y2.7424  
G01 X-0.6741 Y2.8513  
G01 X-0.6727 Y2.8600  
G01 X-0.6700 Y2.8683  
G01 X-0.6660 Y2.8762  
G01 X-0.6608 Y2.8833  
G01 X-0.6546 Y2.8896  
G01 X-0.6475 Y2.8947  
G01 X-0.6396 Y2.8987  
G01 X-0.6312 Y2.9015  
G01 X-0.6225 Y2.9029  
G01 X-0.6137 Y2.9029  
G01 X-0.6050 Y2.9015  
G01 X-0.5966 Y2.8987  
G01 X-0.5888 Y2.8947  
G01 X-0.5816 Y2.8896  
G01 X-0.5754 Y2.8833  
G01 X-0.5702 Y2.8762  
G01 X-0.5662 Y2.8683  
G01 X-0.5635 Y2.8600  
G01 X-0.5621 Y2.8513  
G01 X-0.5621 Y2.7424  
G01 X-0.5635 Y2.7337  
G01 X-0.5662 Y2.7254  
G01 X-0.5702 Y2.7175  
G01 X-0.5754 Y2.7104  
G01 X-0.5816 Y2.7041  
G01 X-0.5888 Y2.6990  
G01 X-0.5966 Y2.6950  
G01 X-0.6050 Y2.6922  
G01 X-0.6137 Y2.6909  
G01 X-0.6225 Y2.6909  
G01 X-0.6312 Y2.6922  
G01 X-0.6396 Y2.6950  
G01 X-0.6471 Y2.6988  
G01 X-0.6723 Y2.6426  
G01 X-0.6680 Y2.6383  
G01 X-0.6680 Y2.6117  
G00 Z0.0500  
G00 X-0.0846 Y0.3125  
G01 Z-0.0040 F10    
G01 X-0.0856 Y0.3118  F20    
G01 X-0.0865 Y0.3110  
G01 X-0.0876 Y0.3103  
G01 X-0.1872 Y0.2352  
G01 X-0.1880 Y0.2344  
G01 X-0.1892 Y0.2337  
G01 X-0.1903 Y0.2329  
G01 X-0.1914 Y0.2324  
G01 X-0.1925 Y0.2318  
G01 X-0.1938 Y0.2315  
G01 X-0.1951 Y0.2310  
G01 X-0.1963 Y0.2308  
G01 X-0.1974 Y0.2305  
G01 X-0.1988 Y0.2305  
G01 X-0.2002 Y0.2303  
G01 X-0.2014 Y0.2305  
G01 X-0.6231 Y0.2305  
G01 X-0.6237 Y0.2304  
G01 X-0.6256 Y0.2305  
G01 X-0.6276 Y0.2305  
G01 X-0.6282 Y0.2307  
G01 X-0.6288 Y0.2307  
G01 X-0.6307 Y0.2313  
G01 X-0.6325 Y0.2318  
G01 X-0.6331 Y0.2321  
G01 X-0.6337 Y0.2324  
G01 X-0.6353 Y0.2334  
G01 X-0.6370 Y0.2344  
G01 X-0.6374 Y0.2348  
G01 X-0.7103 Y0.2834  
G01 X-0.7120 Y0.2844  
G01 X-0.7124 Y0.2848  
G01 X-0.7130 Y0.2852  
G01 X-0.7142 Y0.2867  
G01 X-0.7156 Y0.2880  
G01 X-0.7159 Y0.2886  
G01 X-0.7163 Y0.2891  
G01 X-0.7172 Y0.2908  
G01 X-0.7182 Y0.2925  
G01 X-0.7183 Y0.2931  
G01 X-0.7186 Y0.2937  
G01 X-0.7190 Y0.2956  
G01 X-0.7195 Y0.2974  
G01 X-0.7195 Y0.2981  
G01 X-0.7196 Y0.2987  
G01 X-0.7195 Y0.3006  
G01 X-0.7195 Y0.4169  
G01 X-0.7331 Y0.4305  
G01 X-0.7566 Y0.4305  
G01 X-0.7816 Y0.4055  
G01 X-0.8184 Y0.4055  
G01 X-0.8445 Y0.4316  
G01 X-0.8445 Y0.4376  
G01 X-0.8555 Y0.4395  
G01 X-0.8555 Y0.4316  
G01 X-0.8816 Y0.4055  
G01 X-0.9184 Y0.4055  
G01 X-0.9445 Y0.4316  
G01 X-0.9445 Y0.4410  
G01 X-0.9449 Y0.4411  
G01 X-0.9472 Y0.4417  
G01 X-0.9474 Y0.4418  
G01 X-0.9475 Y0.4418  
G01 X-0.9496 Y0.4430  
G01 X-0.9517 Y0.4442  
G01 X-0.9518 Y0.4443  
G01 X-0.9520 Y0.4444  
G01 X-0.9537 Y0.4461  
G01 X-0.9554 Y0.4478  
G01 X-0.9555 Y0.4479  
G01 X-0.9556 Y0.4480  
G01 X-0.9568 Y0.4501  
G01 X-0.9580 Y0.4522  
G01 X-0.9581 Y0.4523  
G01 X-0.9582 Y0.4525  
G01 X-0.9588 Y0.4548  
G01 X-0.9595 Y0.4571  
G01 X-0.9595 Y0.4573  
G01 X-0.9595 Y0.4574  
G01 X-0.9595 Y0.4598  
G01 X-0.9595 Y0.4622  
G01 X-0.9595 Y0.4624  
G01 X-0.9595 Y0.4626  
G01 X-0.9589 Y0.4649  
G01 X-0.9583 Y0.4672  
G01 X-0.9582 Y0.4674  
G01 X-0.9582 Y0.4675  
G01 X-0.9570 Y0.4696  
G01 X-0.9558 Y0.4717  
G01 X-0.9557 Y0.4718  
G01 X-0.9556 Y0.4720  
G01 X-0.9539 Y0.4737  
G01 X-0.9522 Y0.4754  
G01 X-0.9521 Y0.4755  
G01 X-0.9520 Y0.4756  
G01 X-0.9499 Y0.4768  
G01 X-0.9478 Y0.4780  
G01 X-0.9477 Y0.4781  
G01 X-0.9475 Y0.4782  
G01 X-0.9452 Y0.4788  
G01 X-0.9429 Y0.4795  
G01 X-0.9427 Y0.4795  
G01 X-0.9426 Y0.4795  
G01 X-0.9402 Y0.4795  
G01 X-0.9378 Y0.4795  
G01 X-0.9376 Y0.4795  
G01 X-0.9334 Y0.4795  
G01 X-0.9184 Y0.4945  
G01 X-0.9107 Y0.4945  
G01 X-0.9157 Y0.5055  
G01 X-0.9184 Y0.5055  
G01 X-0.9445 Y0.5316  
G01 X-0.9445 Y0.5684  
G01 X-0.9184 Y0.5945  
G01 X-0.8816 Y0.5945  
G01 X-0.8795 Y0.5924  
G01 X-0.8795 Y0.6076  
G01 X-0.8816 Y0.6055  
G01 X-0.9184 Y0.6055  
G01 X-0.9445 Y0.6316  
G01 X-0.9445 Y0.6410  
G01 X-0.9449 Y0.6411  
G01 X-0.9472 Y0.6417  
G01 X-0.9474 Y0.6418  
G01 X-0.9475 Y0.6418  
G01 X-0.9494 Y0.6429  
G01 X-1.0725 Y0.6755  
G01 X-1.0750 Y0.6762  
G01 X-1.0775 Y0.6768  
G01 X-1.0797 Y0.6781  
G01 X-1.0819 Y0.6794  
G01 X-1.0838 Y0.6812  
G01 X-1.0856 Y0.6830  
G01 X-1.0869 Y0.6852  
G01 X-1.0881 Y0.6874  
G01 X-1.0888 Y0.6899  
G01 X-1.0895 Y0.6924  
G01 X-1.0895 Y0.6950  
G01 X-1.0895 Y0.6975  
G01 X-1.0895 Y1.1381  
G01 X-1.0896 Y1.1388  
G01 X-1.0895 Y1.1407  
G01 X-1.0895 Y1.1426  
G01 X-1.0893 Y1.1432  
G01 X-1.0893 Y1.1439  
G01 X-1.0887 Y1.1457  
G01 X-1.0882 Y1.1475  
G01 X-1.0878 Y1.1481  
G01 X-1.0876 Y1.1488  
G01 X-1.0865 Y1.1503  
G01 X-1.0856 Y1.1520  
G01 X-1.0851 Y1.1525  
G01 X-1.0847 Y1.1530  
G01 X-1.0833 Y1.1543  
G01 X-1.0820 Y1.1556  
G01 X-1.0814 Y1.1560  
G01 X-1.0808 Y1.1564  
G01 X-1.0792 Y1.1572  
G01 X-1.0775 Y1.1582  
G01 X-1.0769 Y1.1584  
G01 X-0.8939 Y1.2475  
G01 X-0.8709 Y1.6736  
G01 X-0.8835 Y1.6861  
G01 X-0.8835 Y1.7139  
G01 X-0.8639 Y1.7335  
G01 X-0.8562 Y1.7335  
G01 X-0.8191 Y1.8151  
G01 X-0.8045 Y1.9759  
G01 X-0.8045 Y2.1391  
G01 X-0.8047 Y2.1408  
G01 X-0.8045 Y2.1417  
G01 X-0.8045 Y2.1426  
G01 X-0.8041 Y2.1442  
G01 X-0.8038 Y2.1458  
G01 X-0.8034 Y2.1467  
G01 X-0.8032 Y2.1475  
G01 X-0.8023 Y2.1490  
G01 X-0.8016 Y2.1505  
G01 X-0.8011 Y2.1512  
G01 X-0.8006 Y2.1520  
G01 X-0.7994 Y2.1532  
G01 X-0.7983 Y2.1545  
G01 X-0.7976 Y2.1550  
G01 X-0.7970 Y2.1556  
G01 X-0.7955 Y2.1564  
G01 X-0.7335 Y2.2002  
G01 X-0.7335 Y2.2033  
G01 X-0.7322 Y2.2098  
G01 X-0.7320 Y2.2102  
G01 X-0.7898 Y2.2872  
G01 X-0.7906 Y2.2880  
G01 X-0.7913 Y2.2892  
G01 X-0.7921 Y2.2904  
G01 X-0.7926 Y2.2914  
G01 X-0.7932 Y2.2925  
G01 X-0.7935 Y2.2938  
G01 X-0.7941 Y2.2951  
G01 X-0.7942 Y2.2963  
G01 X-0.7945 Y2.2974  
G01 X-0.7945 Y2.2988  
G01 X-0.7947 Y2.3002  
G01 X-0.7945 Y2.3014  
G01 X-0.7945 Y2.3221  
G01 X-0.8085 Y2.3361  
G01 X-0.8085 Y2.3639  
G01 X-0.7995 Y2.3729  
G01 X-0.8190 Y2.4706  
G01 X-0.8195 Y2.4724  
G01 X-0.8195 Y2.4731  
G01 X-0.8196 Y2.4737  
G01 X-0.8195 Y2.4756  
G01 X-0.8195 Y2.9026  
G01 X-0.8182 Y2.9075  
G01 X-0.8156 Y2.9120  
G01 X-0.7656 Y2.9620  
G01 X-0.7620 Y2.9656  
G01 X-0.7575 Y2.9682  
G01 X-0.7526 Y2.9695  
G01 X-0.2490 Y2.9695  
G01 X-0.2440 Y2.9682  
G01 X-0.2396 Y2.9656  
G01 X-0.1487 Y2.8747  
G01 X-0.1476 Y2.8770  
G01 X-0.1423 Y2.8843  
G01 X-0.1359 Y2.8907  
G01 X-0.1286 Y2.8960  
G01 X-0.1205 Y2.9001  
G01 X-0.1119 Y2.9029  
G01 X-0.1030 Y2.9044  
G01 X-0.0939 Y2.9044  
G01 X-0.0850 Y2.9029  
G01 X-0.0764 Y2.9001  
G01 X-0.0683 Y2.8960  
G01 X-0.0610 Y2.8907  
G01 X-0.0546 Y2.8843  
G01 X-0.0492 Y2.8770  
G01 X-0.0451 Y2.8689  
G01 X-0.0423 Y2.8603  
G01 X-0.0409 Y2.8514  
G01 X-0.0409 Y2.7423  
G01 X-0.0423 Y2.7334  
G01 X-0.0451 Y2.7248  
G01 X-0.0492 Y2.7167  
G01 X-0.0546 Y2.7094  
G01 X-0.0610 Y2.7030  
G01 X-0.0683 Y2.6977  
G01 X-0.0764 Y2.6936  
G01 X-0.0850 Y2.6908  
G01 X-0.0939 Y2.6894  
G01 X-0.1030 Y2.6894  
G01 X-0.1119 Y2.6908  
G01 X-0.1205 Y2.6936  
G01 X-0.1286 Y2.6977  
G01 X-0.1359 Y2.7030  
G01 X-0.1423 Y2.7094  
G01 X-0.1476 Y2.7167  
G01 X-0.1517 Y2.7248  
G01 X-0.1545 Y2.7334  
G01 X-0.1559 Y2.7423  
G01 X-0.1559 Y2.8268  
G01 X-0.2597 Y2.9305  
G01 X-0.7419 Y2.9305  
G01 X-0.7805 Y2.8919  
G01 X-0.7805 Y2.4769  
G01 X-0.7618 Y2.3835  
G01 X-0.7611 Y2.3835  
G01 X-0.7415 Y2.3639  
G01 X-0.7415 Y2.3361  
G01 X-0.7555 Y2.3221  
G01 X-0.7555 Y2.3065  
G01 X-0.7007 Y2.2335  
G01 X-0.6967 Y2.2335  
G01 X-0.6902 Y2.2322  
G01 X-0.6841 Y2.2297  
G01 X-0.6786 Y2.2260  
G01 X-0.6740 Y2.2214  
G01 X-0.6703 Y2.2159  
G01 X-0.6678 Y2.2098  
G01 X-0.6665 Y2.2033  
G01 X-0.6665 Y2.1967  
G01 X-0.6678 Y2.1902  
G01 X-0.6703 Y2.1841  
G01 X-0.6740 Y2.1786  
G01 X-0.6786 Y2.1740  
G01 X-0.6841 Y2.1703  
G01 X-0.6902 Y2.1678  
G01 X-0.6967 Y2.1665  
G01 X-0.7033 Y2.1665  
G01 X-0.7098 Y2.1678  
G01 X-0.7111 Y2.1683  
G01 X-0.7655 Y2.1299  
G01 X-0.7655 Y1.9767  
G01 X-0.7653 Y1.9758  
G01 X-0.7655 Y1.9741  
G01 X-0.7655 Y1.9724  
G01 X-0.7657 Y1.9716  
G01 X-0.7804 Y1.8101  
G01 X-0.7803 Y1.8093  
G01 X-0.7806 Y1.8075  
G01 X-0.7808 Y1.8057  
G01 X-0.7811 Y1.8050  
G01 X-0.7812 Y1.8043  
G01 X-0.7819 Y1.8026  
G01 X-0.7826 Y1.8009  
G01 X-0.7830 Y1.8003  
G01 X-0.8205 Y1.7178  
G01 X-0.8165 Y1.7139  
G01 X-0.8165 Y1.6861  
G01 X-0.8321 Y1.6706  
G01 X-0.8554 Y1.2364  
G01 X-0.8554 Y1.2362  
G01 X-0.8555 Y1.2338  
G01 X-0.8557 Y1.2314  
G01 X-0.8557 Y1.2312  
G01 X-0.8557 Y1.2311  
G01 X-0.8565 Y1.2288  
G01 X-0.8573 Y1.2265  
G01 X-0.8573 Y1.2264  
G01 X-0.8574 Y1.2262  
G01 X-0.8587 Y1.2242  
G01 X-0.8601 Y1.2222  
G01 X-0.8602 Y1.2221  
G01 X-0.8603 Y1.2220  
G01 X-0.8621 Y1.2204  
G01 X-0.8639 Y1.2188  
G01 X-0.8640 Y1.2187  
G01 X-0.8642 Y1.2186  
G01 X-0.8663 Y1.2175  
G01 X-0.8685 Y1.2165  
G01 X-0.8686 Y1.2164  
G01 X-1.0505 Y1.1278  
G01 X-1.0505 Y0.7100  
G01 X-0.9352 Y0.6795  
G01 X-0.9334 Y0.6795  
G01 X-0.9184 Y0.6945  
G01 X-0.8816 Y0.6945  
G01 X-0.8666 Y0.6795  
G01 X-0.8609 Y0.6795  
G01 X-0.8593 Y0.6797  
G01 X-0.8584 Y0.6795  
G01 X-0.8574 Y0.6795  
G01 X-0.8559 Y0.6791  
G01 X-0.8370 Y0.6759  
G01 X-0.8184 Y0.6945  
G01 X-0.7816 Y0.6945  
G01 X-0.7555 Y0.6684  
G01 X-0.7555 Y0.6316  
G01 X-0.7816 Y0.6055  
G01 X-0.8184 Y0.6055  
G01 X-0.8370 Y0.6241  
G01 X-0.8405 Y0.6235  
G01 X-0.8405 Y0.5765  
G01 X-0.8370 Y0.5759  
G01 X-0.8184 Y0.5945  
G01 X-0.7816 Y0.5945  
G01 X-0.7555 Y0.5684  
G01 X-0.7555 Y0.5316  
G01 X-0.7816 Y0.5055  
G01 X-0.8184 Y0.5055  
G01 X-0.8370 Y0.5241  
G01 X-0.8405 Y0.5235  
G01 X-0.8405 Y0.4765  
G01 X-0.8370 Y0.4759  
G01 X-0.8184 Y0.4945  
G01 X-0.7816 Y0.4945  
G01 X-0.7566 Y0.4695  
G01 X-0.7224 Y0.4695  
G01 X-0.7175 Y0.4682  
G01 X-0.7130 Y0.4656  
G01 X-0.7094 Y0.4620  
G01 X-0.6844 Y0.4370  
G01 X-0.6818 Y0.4325  
G01 X-0.6805 Y0.4276  
G01 X-0.6805 Y0.3104  
G01 X-0.6191 Y0.2695  
G01 X-0.2065 Y0.2695  
G01 X-0.1179 Y0.3363  
G01 X-0.1179 Y0.4427  
G01 X-0.1205 Y0.4436  
G01 X-0.1286 Y0.4477  
G01 X-0.1359 Y0.4530  
G01 X-0.1423 Y0.4594  
G01 X-0.1476 Y0.4667  
G01 X-0.1517 Y0.4748  
G01 X-0.1545 Y0.4834  
G01 X-0.1559 Y0.4923  
G01 X-0.1559 Y0.6014  
G01 X-0.1545 Y0.6103  
G01 X-0.1517 Y0.6189  
G01 X-0.1476 Y0.6270  
G01 X-0.1423 Y0.6343  
G01 X-0.1359 Y0.6407  
G01 X-0.1286 Y0.6460  
G01 X-0.1205 Y0.6501  
G01 X-0.1119 Y0.6529  
G01 X-0.1030 Y0.6544  
G01 X-0.0939 Y0.6544  
G01 X-0.0850 Y0.6529  
G01 X-0.0764 Y0.6501  
G01 X-0.0683 Y0.6460  
G01 X-0.0610 Y0.6407  
G01 X-0.0546 Y0.6343  
G01 X-0.0492 Y0.6270  
G01 X-0.0451 Y0.6189  
G01 X-0.0423 Y0.6103  
G01 X-0.0409 Y0.6014  
G01 X-0.0409 Y0.4923  
G01 X-0.0423 Y0.4834  
G01 X-0.0451 Y0.4748  
G01 X-0.0492 Y0.4667  
G01 X-0.0546 Y0.4594  
G01 X-0.0610 Y0.4530  
G01 X-0.0683 Y0.4477  
G01 X-0.0764 Y0.4436  
G01 X-0.0789 Y0.4427  
G01 X-0.0789 Y0.3278  
G01 X-0.0788 Y0.3264  
G01 X-0.0789 Y0.3252  
G01 X-0.0789 Y0.3240  
G01 X-0.0793 Y0.3227  
G01 X-0.0795 Y0.3213  
G01 X-0.0799 Y0.3202  
G01 X-0.0803 Y0.3190  
G01 X-0.0809 Y0.3179  
G01 X-0.0815 Y0.3166  
G01 X-0.0822 Y0.3156  
G01 X-0.0828 Y0.3146  
G01 X-0.0838 Y0.3136  
G01 X-0.0846 Y0.3125  
G00 Z0.0500  
G00 X-0.4323 Y0.3120  
G01 Z-0.0040 F10    
G01 X-0.4376 Y0.3047  F20    
G01 X-0.4440 Y0.2983  
G01 X-0.4514 Y0.2929  
G01 X-0.4594 Y0.2888  
G01 X-0.4680 Y0.2860  
G01 X-0.4770 Y0.2846  
G01 X-0.5860 Y0.2846  
G01 X-0.5950 Y0.2860  
G01 X-0.6036 Y0.2888  
G01 X-0.6116 Y0.2929  
G01 X-0.6190 Y0.2983  
G01 X-0.6254 Y0.3047  
G01 X-0.6307 Y0.3120  
G01 X-0.6348 Y0.3201  
G01 X-0.6376 Y0.3287  
G01 X-0.6390 Y0.3376  
G01 X-0.6390 Y0.3467  
G01 X-0.6376 Y0.3556  
G01 X-0.6348 Y0.3642  
G01 X-0.6307 Y0.3723  
G01 X-0.6254 Y0.3796  
G01 X-0.6190 Y0.3860  
G01 X-0.6116 Y0.3913  
G01 X-0.6036 Y0.3954  
G01 X-0.5950 Y0.3982  
G01 X-0.5860 Y0.3996  
G01 X-0.4770 Y0.3996  
G01 X-0.4680 Y0.3982  
G01 X-0.4594 Y0.3954  
G01 X-0.4514 Y0.3913  
G01 X-0.4440 Y0.3860  
G01 X-0.4376 Y0.3796  
G01 X-0.4323 Y0.3723  
G01 X-0.4282 Y0.3642  
G01 X-0.4254 Y0.3556  
G01 X-0.4240 Y0.3467  
G01 X-0.4240 Y0.3376  
G01 X-0.4254 Y0.3287  
G01 X-0.4282 Y0.3201  
G01 X-0.4323 Y0.3120  
G00 Z0.0500  
G00 X-0.5743 Y0.4594  
G01 Z-0.0040 F10    
G01 X-0.5807 Y0.4530  F20    
G01 X-0.5880 Y0.4477  
G01 X-0.5960 Y0.4436  
G01 X-0.6046 Y0.4408  
G01 X-0.6136 Y0.4394  
G01 X-0.6226 Y0.4394  
G01 X-0.6316 Y0.4408  
G01 X-0.6402 Y0.4436  
G01 X-0.6482 Y0.4477  
G01 X-0.6556 Y0.4530  
G01 X-0.6620 Y0.4594  
G01 X-0.6673 Y0.4667  
G01 X-0.6714 Y0.4748  
G01 X-0.6742 Y0.4834  
G01 X-0.6756 Y0.4923  
G01 X-0.6756 Y0.6014  
G01 X-0.6742 Y0.6103  
G01 X-0.6714 Y0.6189  
G01 X-0.6673 Y0.6270  
G01 X-0.6620 Y0.6343  
G01 X-0.6556 Y0.6407  
G01 X-0.6482 Y0.6460  
G01 X-0.6402 Y0.6501  
G01 X-0.6316 Y0.6529  
G01 X-0.6226 Y0.6544  
G01 X-0.6195 Y0.6544  
G01 X-0.6195 Y0.8471  
G01 X-0.6335 Y0.8611  
G01 X-0.6335 Y0.8889  
G01 X-0.6139 Y0.9085  
G01 X-0.5861 Y0.9085  
G01 X-0.5665 Y0.8889  
G01 X-0.5665 Y0.8611  
G01 X-0.5805 Y0.8471  
G01 X-0.5805 Y0.6406  
G01 X-0.5743 Y0.6343  
G01 X-0.5689 Y0.6270  
G01 X-0.5648 Y0.6189  
G01 X-0.5620 Y0.6103  
G01 X-0.5606 Y0.6014  
G01 X-0.5606 Y0.4923  
G01 X-0.5620 Y0.4834  
G01 X-0.5648 Y0.4748  
G01 X-0.5689 Y0.4667  
G01 X-0.5743 Y0.4594  
G00 Z0.0500  
G00 X-0.7816 Y0.3945  
G01 Z-0.0040 F10    
G01 X-0.7555 Y0.3684  F20    
G01 X-0.7555 Y0.3316  
G01 X-0.7816 Y0.3055  
G01 X-0.8184 Y0.3055  
G01 X-0.8445 Y0.3316  
G01 X-0.8445 Y0.3376  
G01 X-0.8555 Y0.3395  
G01 X-0.8555 Y0.3316  
G01 X-0.8816 Y0.3055  
G01 X-0.9184 Y0.3055  
G01 X-0.9445 Y0.3316  
G01 X-0.9445 Y0.3410  
G01 X-0.9449 Y0.3411  
G01 X-0.9472 Y0.3417  
G01 X-0.9474 Y0.3418  
G01 X-0.9475 Y0.3418  
G01 X-0.9496 Y0.3430  
G01 X-0.9517 Y0.3442  
G01 X-0.9518 Y0.3443  
G01 X-0.9520 Y0.3444  
G01 X-0.9537 Y0.3461  
G01 X-0.9554 Y0.3478  
G01 X-0.9555 Y0.3479  
G01 X-0.9556 Y0.3480  
G01 X-0.9568 Y0.3501  
G01 X-0.9580 Y0.3522  
G01 X-0.9581 Y0.3523  
G01 X-0.9582 Y0.3525  
G01 X-1.1160 Y0.4164  
G01 X-1.1172 Y0.4167  
G01 X-1.1184 Y0.4174  
G01 X-1.1197 Y0.4179  
G01 X-1.1206 Y0.4186  
G01 X-1.1217 Y0.4192  
G01 X-1.1227 Y0.4201  
G01 X-1.1238 Y0.4210  
G01 X-1.1245 Y0.4219  
G01 X-1.1254 Y0.4227  
G01 X-1.1261 Y0.4239  
G01 X-1.1270 Y0.4250  
G01 X-1.1274 Y0.4261  
G01 X-1.1280 Y0.4271  
G01 X-1.1284 Y0.4285  
G01 X-1.1290 Y0.4298  
G01 X-1.1291 Y0.4309  
G01 X-1.1294 Y0.4320  
G01 X-1.1295 Y0.4334  
G01 X-1.1297 Y0.4348  
G01 X-1.1295 Y0.4360  
G01 X-1.1444 Y1.1721  
G01 X-1.1445 Y1.1747  
G01 X-1.1445 Y1.1772  
G01 X-1.1439 Y1.1797  
G01 X-1.1433 Y1.1822  
G01 X-1.1421 Y1.1845  
G01 X-1.1408 Y1.1867  
G01 X-1.1390 Y1.1885  
G01 X-1.1373 Y1.1904  
G01 X-1.1350 Y1.1917  
G01 X-1.1329 Y1.1930  
G01 X-1.0121 Y1.2655  
G01 X-0.9695 Y1.3081  
G01 X-0.9695 Y1.4234  
G01 X-0.9697 Y1.4243  
G01 X-0.9695 Y1.4259  
G01 X-0.9695 Y1.4276  
G01 X-0.9693 Y1.4285  
G01 X-0.9546 Y1.5850  
G01 X-0.9547 Y1.5857  
G01 X-0.9543 Y1.5875  
G01 X-0.9542 Y1.5894  
G01 X-0.9539 Y1.5900  
G01 X-0.9295 Y1.7368  
G01 X-0.9294 Y1.7380  
G01 X-0.9290 Y1.7393  
G01 X-0.9288 Y1.7407  
G01 X-0.9283 Y1.7418  
G01 X-0.8744 Y1.9279  
G01 X-0.8699 Y2.1805  
G01 X-0.9727 Y2.1805  
G01 X-0.9740 Y2.1786  
G01 X-0.9786 Y2.1740  
G01 X-0.9841 Y2.1703  
G01 X-0.9902 Y2.1678  
G01 X-0.9967 Y2.1665  
G01 X-1.0033 Y2.1665  
G01 X-1.0098 Y2.1678  
G01 X-1.0159 Y2.1703  
G01 X-1.0214 Y2.1740  
G01 X-1.0260 Y2.1786  
G01 X-1.0297 Y2.1841  
G01 X-1.0322 Y2.1902  
G01 X-1.0335 Y2.1967  
G01 X-1.0335 Y2.2033  
G01 X-1.0322 Y2.2098  
G01 X-1.0297 Y2.2159  
G01 X-1.0260 Y2.2214  
G01 X-1.0214 Y2.2260  
G01 X-1.0159 Y2.2297  
G01 X-1.0098 Y2.2322  
G01 X-1.0033 Y2.2335  
G01 X-0.9967 Y2.2335  
G01 X-0.9902 Y2.2322  
G01 X-0.9841 Y2.2297  
G01 X-0.9786 Y2.2260  
G01 X-0.9740 Y2.2214  
G01 X-0.9727 Y2.2195  
G01 X-0.8730 Y2.2195  
G01 X-0.8892 Y2.3169  
G01 X-0.9085 Y2.3361  
G01 X-0.9085 Y2.3639  
G01 X-0.8889 Y2.3835  
G01 X-0.8611 Y2.3835  
G01 X-0.8415 Y2.3639  
G01 X-0.8415 Y2.3361  
G01 X-0.8513 Y2.3263  
G01 X-0.8309 Y2.2041  
G01 X-0.8305 Y2.2026  
G01 X-0.8305 Y2.2024  
G01 X-0.8305 Y2.2022  
G01 X-0.8305 Y2.2014  
G01 X-0.8303 Y2.2007  
G01 X-0.8305 Y2.1991  
G01 X-0.8305 Y2.1974  
G01 X-0.8305 Y2.1973  
G01 X-0.8355 Y1.9272  
G01 X-0.8355 Y1.9246  
G01 X-0.8355 Y1.9221  
G01 X-0.8363 Y1.9196  
G01 X-0.8370 Y1.9171  
G01 X-0.8910 Y1.7307  
G01 X-0.9157 Y1.5825  
G01 X-0.9305 Y1.4241  
G01 X-0.9305 Y1.2974  
G01 X-0.9318 Y1.2925  
G01 X-0.9344 Y1.2880  
G01 X-0.9861 Y1.2363  
G01 X-0.9878 Y1.2346  
G01 X-0.9879 Y1.2345  
G01 X-0.9880 Y1.2344  
G01 X-0.9901 Y1.2332  
G01 X-1.1053 Y1.1641  
G01 X-1.0908 Y0.4483  
G01 X-0.9298 Y0.3831  
G01 X-0.9184 Y0.3945  
G01 X-0.8816 Y0.3945  
G01 X-0.8666 Y0.3795  
G01 X-0.8609 Y0.3795  
G01 X-0.8593 Y0.3797  
G01 X-0.8584 Y0.3795  
G01 X-0.8574 Y0.3795  
G01 X-0.8559 Y0.3791  
G01 X-0.8370 Y0.3759  
G01 X-0.8184 Y0.3945  
G01 X-0.7816 Y0.3945  
G00 Z0.0500  
G00 X-0.7816 Y0.7055  
G01 Z-0.0040 F10    
G01 X-0.8184 Y0.7055  F20    
G01 X-0.8424 Y0.7295  
G01 X-0.8580 Y0.7291  
G01 X-0.8816 Y0.7055  
G01 X-0.9184 Y0.7055  
G01 X-0.9400 Y0.7271  
G01 X-1.0023 Y0.7256  
G01 X-1.0027 Y0.7255  
G01 X-1.0049 Y0.7255  
G01 X-1.0071 Y0.7254  
G01 X-1.0075 Y0.7255  
G01 X-1.0078 Y0.7255  
G01 X-1.0099 Y0.7261  
G01 X-1.0121 Y0.7267  
G01 X-1.0124 Y0.7268  
G01 X-1.0128 Y0.7269  
G01 X-1.0147 Y0.7281  
G01 X-1.0166 Y0.7291  
G01 X-1.0169 Y0.7294  
G01 X-1.0172 Y0.7296  
G01 X-1.0187 Y0.7311  
G01 X-1.0203 Y0.7326  
G01 X-1.0205 Y0.7330  
G01 X-1.0208 Y0.7332  
G01 X-1.0218 Y0.7352  
G01 X-1.0230 Y0.7370  
G01 X-1.0231 Y0.7374  
G01 X-1.0233 Y0.7377  
G01 X-1.0238 Y0.7399  
G01 X-1.0244 Y0.7420  
G01 X-1.0244 Y0.7423  
G01 X-1.0245 Y0.7427  
G01 X-1.0245 Y0.7449  
G01 X-1.0246 Y0.7471  
G01 X-1.0245 Y0.7475  
G01 X-1.0195 Y1.0983  
G01 X-1.0196 Y1.0988  
G01 X-1.0195 Y1.1008  
G01 X-1.0195 Y1.1028  
G01 X-1.0193 Y1.1034  
G01 X-1.0193 Y1.1039  
G01 X-1.0186 Y1.1058  
G01 X-1.0181 Y1.1078  
G01 X-1.0178 Y1.1083  
G01 X-1.0176 Y1.1088  
G01 X-1.0165 Y1.1105  
G01 X-1.0154 Y1.1122  
G01 X-1.0150 Y1.1126  
G01 X-1.0147 Y1.1130  
G01 X-1.0132 Y1.1144  
G01 X-1.0118 Y1.1158  
G01 X-1.0113 Y1.1160  
G01 X-1.0108 Y1.1164  
G01 X-1.0090 Y1.1173  
G01 X-1.0073 Y1.1183  
G01 X-1.0067 Y1.1184  
G01 X-0.8237 Y1.2076  
G01 X-0.7946 Y1.6640  
G01 X-0.7947 Y1.6643  
G01 X-0.7944 Y1.6666  
G01 X-0.7943 Y1.6688  
G01 X-0.7942 Y1.6691  
G01 X-0.7942 Y1.6694  
G01 X-0.7934 Y1.6715  
G01 X-0.7927 Y1.6737  
G01 X-0.7925 Y1.6739  
G01 X-0.7924 Y1.6742  
G01 X-0.7911 Y1.6761  
G01 X-0.7898 Y1.6779  
G01 X-0.7896 Y1.6782  
G01 X-0.7835 Y1.6866  
G01 X-0.7835 Y1.7139  
G01 X-0.7639 Y1.7335  
G01 X-0.7441 Y1.7335  
G01 X-0.7434 Y1.7342  
G01 X-0.7232 Y1.8758  
G01 X-0.7260 Y1.8786  
G01 X-0.7297 Y1.8841  
G01 X-0.7322 Y1.8902  
G01 X-0.7335 Y1.8967  
G01 X-0.7335 Y1.9033  
G01 X-0.7322 Y1.9098  
G01 X-0.7297 Y1.9159  
G01 X-0.7260 Y1.9214  
G01 X-0.7214 Y1.9260  
G01 X-0.7159 Y1.9297  
G01 X-0.7098 Y1.9322  
G01 X-0.7033 Y1.9335  
G01 X-0.6967 Y1.9335  
G01 X-0.6902 Y1.9322  
G01 X-0.6841 Y1.9297  
G01 X-0.6786 Y1.9260  
G01 X-0.6740 Y1.9214  
G01 X-0.6703 Y1.9159  
G01 X-0.6678 Y1.9098  
G01 X-0.6665 Y1.9033  
G01 X-0.6665 Y1.8967  
G01 X-0.6678 Y1.8902  
G01 X-0.6703 Y1.8841  
G01 X-0.6740 Y1.8786  
G01 X-0.6786 Y1.8740  
G01 X-0.6841 Y1.8703  
G01 X-0.6846 Y1.8701  
G01 X-0.7055 Y1.7236  
G01 X-0.7055 Y1.7224  
G01 X-0.7059 Y1.7211  
G01 X-0.7061 Y1.7197  
G01 X-0.7065 Y1.7186  
G01 X-0.7068 Y1.7175  
G01 X-0.7075 Y1.7163  
G01 X-0.7081 Y1.7150  
G01 X-0.7088 Y1.7140  
G01 X-0.7094 Y1.7130  
G01 X-0.7104 Y1.7120  
G01 X-0.7112 Y1.7109  
G01 X-0.7122 Y1.7102  
G01 X-0.7165 Y1.7059  
G01 X-0.7165 Y1.6861  
G01 X-0.7361 Y1.6665  
G01 X-0.7500 Y1.6665  
G01 X-0.7559 Y1.6582  
G01 X-0.7854 Y1.1963  
G01 X-0.7855 Y1.1937  
G01 X-0.7857 Y1.1912  
G01 X-0.7857 Y1.1911  
G01 X-0.7865 Y1.1887  
G01 X-0.7873 Y1.1863  
G01 X-0.7874 Y1.1862  
G01 X-0.7888 Y1.1841  
G01 X-0.7902 Y1.1821  
G01 X-0.7922 Y1.1803  
G01 X-0.7940 Y1.1787  
G01 X-0.7942 Y1.1786  
G01 X-0.7964 Y1.1775  
G01 X-0.7986 Y1.1764  
G01 X-0.9807 Y1.0877  
G01 X-0.9852 Y0.7650  
G01 X-0.9587 Y0.7656  
G01 X-0.9583 Y0.7672  
G01 X-0.9582 Y0.7674  
G01 X-0.9582 Y0.7675  
G01 X-0.9570 Y0.7696  
G01 X-0.9558 Y0.7717  
G01 X-0.9557 Y0.7718  
G01 X-0.9556 Y0.7720  
G01 X-0.9539 Y0.7737  
G01 X-0.9522 Y0.7754  
G01 X-0.9521 Y0.7755  
G01 X-0.9520 Y0.7756  
G01 X-0.9499 Y0.7768  
G01 X-0.9478 Y0.7780  
G01 X-0.9477 Y0.7781  
G01 X-0.9475 Y0.7782  
G01 X-0.9452 Y0.7788  
G01 X-0.9429 Y0.7795  
G01 X-0.9427 Y0.7795  
G01 X-0.9426 Y0.7795  
G01 X-0.9402 Y0.7795  
G01 X-0.9378 Y0.7795  
G01 X-0.9376 Y0.7795  
G01 X-0.9334 Y0.7795  
G01 X-0.9184 Y0.7945  
G01 X-0.8816 Y0.7945  
G01 X-0.8666 Y0.7795  
G01 X-0.8609 Y0.7795  
G01 X-0.8593 Y0.7797  
G01 X-0.8584 Y0.7795  
G01 X-0.8574 Y0.7795  
G01 X-0.8559 Y0.7791  
G01 X-0.8370 Y0.7759  
G01 X-0.8184 Y0.7945  
G01 X-0.7816 Y0.7945  
G01 X-0.7555 Y0.7684  
G01 X-0.7555 Y0.7316  
G01 X-0.7816 Y0.7055  
G00 Z0.0500  
G00 X-0.7816 Y0.8055  
G01 Z-0.0040 F10    
G01 X-0.8184 Y0.8055  F20    
G01 X-0.8445 Y0.8316  
G01 X-0.8445 Y0.8684  
G01 X-0.8184 Y0.8945  
G01 X-0.7816 Y0.8945  
G01 X-0.7555 Y0.8684  
G01 X-0.7555 Y0.8316  
G01 X-0.7816 Y0.8055  
G00 Z0.0500  
G00 X-0.8555 Y0.8316  
G01 Z-0.0040 F10    
G01 X-0.8816 Y0.8055  F20    
G01 X-0.9184 Y0.8055  
G01 X-0.9445 Y0.8316  
G01 X-0.9445 Y0.8684  
G01 X-0.9184 Y0.8945  
G01 X-0.8816 Y0.8945  
G01 X-0.8555 Y0.8684  
G01 X-0.8555 Y0.8316  
G00 Z0.0500  
G00 X-0.8555 Y0.9316  
G01 Z-0.0040 F10    
G01 X-0.8816 Y0.9055  F20    
G01 X-0.9184 Y0.9055  
G01 X-0.9445 Y0.9316  
G01 X-0.9445 Y0.9410  
G01 X-0.9449 Y0.9411  
G01 X-0.9472 Y0.9417  
G01 X-0.9474 Y0.9418  
G01 X-0.9475 Y0.9418  
G01 X-0.9496 Y0.9430  
G01 X-0.9517 Y0.9442  
G01 X-0.9518 Y0.9443  
G01 X-0.9520 Y0.9444  
G01 X-0.9537 Y0.9461  
G01 X-0.9554 Y0.9478  
G01 X-0.9555 Y0.9479  
G01 X-0.9556 Y0.9480  
G01 X-0.9568 Y0.9501  
G01 X-0.9580 Y0.9522  
G01 X-0.9581 Y0.9523  
G01 X-0.9582 Y0.9525  
G01 X-0.9588 Y0.9548  
G01 X-0.9595 Y0.9571  
G01 X-0.9595 Y0.9573  
G01 X-0.9595 Y0.9574  
G01 X-0.9595 Y0.9598  
G01 X-0.9595 Y0.9622  
G01 X-0.9595 Y0.9624  
G01 X-0.9595 Y0.9626  
G01 X-0.9589 Y0.9649  
G01 X-0.9583 Y0.9672  
G01 X-0.9582 Y0.9674  
G01 X-0.9582 Y0.9675  
G01 X-0.9570 Y0.9696  
G01 X-0.9558 Y0.9717  
G01 X-0.9557 Y0.9718  
G01 X-0.9556 Y0.9720  
G01 X-0.9539 Y0.9737  
G01 X-0.9522 Y0.9754  
G01 X-0.9521 Y0.9755  
G01 X-0.9520 Y0.9756  
G01 X-0.9499 Y0.9768  
G01 X-0.9478 Y0.9780  
G01 X-0.9477 Y0.9781  
G01 X-0.9475 Y0.9782  
G01 X-0.9452 Y0.9788  
G01 X-0.9429 Y0.9795  
G01 X-0.9427 Y0.9795  
G01 X-0.9426 Y0.9795  
G01 X-0.9402 Y0.9795  
G01 X-0.9378 Y0.9795  
G01 X-0.9376 Y0.9795  
G01 X-0.9334 Y0.9795  
G01 X-0.9184 Y0.9945  
G01 X-0.8816 Y0.9945  
G01 X-0.8666 Y0.9795  
G01 X-0.8609 Y0.9795  
G01 X-0.8593 Y0.9797  
G01 X-0.8584 Y0.9795  
G01 X-0.8334 Y0.9795  
G01 X-0.8184 Y0.9945  
G01 X-0.7816 Y0.9945  
G01 X-0.7666 Y0.9795  
G01 X-0.4978 Y0.9795  
G01 X-0.0445 Y1.4084  
G01 X-0.0445 Y2.4419  
G01 X-0.1831 Y2.5805  
G01 X-0.4251 Y2.5805  
G01 X-0.4254 Y2.5787  
G01 X-0.4282 Y2.5701  
G01 X-0.4323 Y2.5620  
G01 X-0.4376 Y2.5547  
G01 X-0.4440 Y2.5483  
G01 X-0.4514 Y2.5429  
G01 X-0.4594 Y2.5388  
G01 X-0.4680 Y2.5360  
G01 X-0.4770 Y2.5346  
G01 X-0.5860 Y2.5346  
G01 X-0.5950 Y2.5360  
G01 X-0.6036 Y2.5388  
G01 X-0.6116 Y2.5429  
G01 X-0.6190 Y2.5483  
G01 X-0.6254 Y2.5547  
G01 X-0.6307 Y2.5620  
G01 X-0.6348 Y2.5701  
G01 X-0.6376 Y2.5787  
G01 X-0.6390 Y2.5876  
G01 X-0.6390 Y2.5967  
G01 X-0.6376 Y2.6056  
G01 X-0.6348 Y2.6142  
G01 X-0.6307 Y2.6223  
G01 X-0.6254 Y2.6296  
G01 X-0.6190 Y2.6360  
G01 X-0.6116 Y2.6413  
G01 X-0.6036 Y2.6454  
G01 X-0.5950 Y2.6482  
G01 X-0.5860 Y2.6496  
G01 X-0.4770 Y2.6496  
G01 X-0.4680 Y2.6482  
G01 X-0.4594 Y2.6454  
G01 X-0.4514 Y2.6413  
G01 X-0.4440 Y2.6360  
G01 X-0.4376 Y2.6296  
G01 X-0.4323 Y2.6223  
G01 X-0.4309 Y2.6195  
G01 X-0.1724 Y2.6195  
G01 X-0.1675 Y2.6182  
G01 X-0.1630 Y2.6156  
G01 X-0.1594 Y2.6120  
G01 X-0.0094 Y2.4620  
G01 X-0.0068 Y2.4575  
G01 X-0.0055 Y2.4526  
G01 X-0.0055 Y1.4023  
G01 X-0.0054 Y1.4020  
G01 X-0.0055 Y1.3997  
G01 X-0.0055 Y1.3974  
G01 X-0.0056 Y1.3972  
G01 X-0.0056 Y1.3969  
G01 X-0.0062 Y1.3947  
G01 X-0.0068 Y1.3925  
G01 X-0.0070 Y1.3922  
G01 X-0.0070 Y1.3920  
G01 X-0.0082 Y1.3900  
G01 X-0.0094 Y1.3880  
G01 X-0.0096 Y1.3878  
G01 X-0.0097 Y1.3876  
G01 X-0.0114 Y1.3860  
G01 X-0.0130 Y1.3844  
G01 X-0.0133 Y1.3843  
G01 X-0.4764 Y0.9460  
G01 X-0.4780 Y0.9444  
G01 X-0.4783 Y0.9443  
G01 X-0.4785 Y0.9441  
G01 X-0.4805 Y0.9430  
G01 X-0.4825 Y0.9418  
G01 X-0.4827 Y0.9418  
G01 X-0.4830 Y0.9416  
G01 X-0.4852 Y0.9411  
G01 X-0.4874 Y0.9405  
G01 X-0.4877 Y0.9405  
G01 X-0.4880 Y0.9404  
G01 X-0.4903 Y0.9405  
G01 X-0.7555 Y0.9405  
G01 X-0.7555 Y0.9316  
G01 X-0.7816 Y0.9055  
G01 X-0.8184 Y0.9055  
G01 X-0.8445 Y0.9316  
G01 X-0.8445 Y0.9376  
G01 X-0.8555 Y0.9395  
G01 X-0.8555 Y0.9316  
G00 Z0.0500  
G00 X-0.8555 Y1.0316  
G01 Z-0.0040 F10    
G01 X-0.8816 Y1.0055  F20    
G01 X-0.9184 Y1.0055  
G01 X-0.9445 Y1.0316  
G01 X-0.9445 Y1.0684  
G01 X-0.9184 Y1.0945  
G01 X-0.8816 Y1.0945  
G01 X-0.8555 Y1.0684  
G01 X-0.8555 Y1.0316  
G00 Z0.0500  
G00 X-0.8445 Y1.0316  
G01 Z-0.0040 F10    
G01 X-0.8445 Y1.0684  F20    
G01 X-0.8184 Y1.0945  
G01 X-0.7816 Y1.0945  
G01 X-0.7555 Y1.0684  
G01 X-0.7555 Y1.0316  
G01 X-0.7816 Y1.0055  
G01 X-0.8184 Y1.0055  
G01 X-0.8445 Y1.0316  
G00 Z0.0500  
G00 X-0.6880 Y1.0602  
G01 Z-0.0040 F10    
G01 X-0.6892 Y1.0617  F20    
G01 X-0.6906 Y1.0630  
G01 X-0.6909 Y1.0636  
G01 X-0.6913 Y1.0641  
G01 X-0.6922 Y1.0658  
G01 X-0.6932 Y1.0675  
G01 X-0.6933 Y1.0681  
G01 X-0.6936 Y1.0687  
G01 X-0.6940 Y1.0706  
G01 X-0.6945 Y1.0724  
G01 X-0.6945 Y1.0731  
G01 X-0.7382 Y1.2915  
G01 X-0.7389 Y1.2915  
G01 X-0.7585 Y1.3111  
G01 X-0.7585 Y1.3389  
G01 X-0.7389 Y1.3585  
G01 X-0.7111 Y1.3585  
G01 X-0.6915 Y1.3389  
G01 X-0.6915 Y1.3111  
G01 X-0.7005 Y1.3021  
G01 X-0.6590 Y1.0945  
G01 X-0.5331 Y1.0945  
G01 X-0.4195 Y1.2081  
G01 X-0.4195 Y1.8000  
G01 X-0.4207 Y1.8000  
G01 X-0.4500 Y1.8293  
G01 X-0.4500 Y1.8707  
G01 X-0.4207 Y1.9000  
G01 X-0.3793 Y1.9000  
G01 X-0.3588 Y1.8795  
G01 X-0.3481 Y1.8795  
G01 X-0.1468 Y2.0807  
G01 X-0.1493 Y2.0882  
G01 X-0.1505 Y2.0960  
G01 X-0.1505 Y2.1040  
G01 X-0.1493 Y2.1118  
G01 X-0.1468 Y2.1194  
G01 X-0.1432 Y2.1265  
G01 X-0.1385 Y2.1329  
G01 X-0.1329 Y2.1385  
G01 X-0.1265 Y2.1432  
G01 X-0.1194 Y2.1468  
G01 X-0.1118 Y2.1493  
G01 X-0.1040 Y2.1505  
G01 X-0.0960 Y2.1505  
G01 X-0.0882 Y2.1493  
G01 X-0.0806 Y2.1468  
G01 X-0.0735 Y2.1432  
G01 X-0.0671 Y2.1385  
G01 X-0.0615 Y2.1329  
G01 X-0.0568 Y2.1265  
G01 X-0.0532 Y2.1194  
G01 X-0.0507 Y2.1118  
G01 X-0.0495 Y2.1040  
G01 X-0.0495 Y2.0960  
G01 X-0.0507 Y2.0882  
G01 X-0.0532 Y2.0806  
G01 X-0.0568 Y2.0735  
G01 X-0.0615 Y2.0671  
G01 X-0.0671 Y2.0615  
G01 X-0.0735 Y2.0568  
G01 X-0.0806 Y2.0532  
G01 X-0.0882 Y2.0507  
G01 X-0.0960 Y2.0495  
G01 X-0.1040 Y2.0495  
G01 X-0.1118 Y2.0507  
G01 X-0.1193 Y2.0532  
G01 X-0.3280 Y1.8444  
G01 X-0.3325 Y1.8418  
G01 X-0.3374 Y1.8405  
G01 X-0.3500 Y1.8405  
G01 X-0.3500 Y1.8293  
G01 X-0.3793 Y1.8000  
G01 X-0.3805 Y1.8000  
G01 X-0.3805 Y1.1974  
G01 X-0.3818 Y1.1925  
G01 X-0.3844 Y1.1880  
G01 X-0.3880 Y1.1844  
G01 X-0.5130 Y1.0594  
G01 X-0.5175 Y1.0568  
G01 X-0.5224 Y1.0555  
G01 X-0.6731 Y1.0555  
G01 X-0.6737 Y1.0554  
G01 X-0.6756 Y1.0555  
G01 X-0.6776 Y1.0555  
G01 X-0.6782 Y1.0557  
G01 X-0.6788 Y1.0557  
G01 X-0.6807 Y1.0563  
G01 X-0.6825 Y1.0568  
G01 X-0.6831 Y1.0571  
G01 X-0.6837 Y1.0574  
G01 X-0.6853 Y1.0584  
G01 X-0.6870 Y1.0594  
G01 X-0.6874 Y1.0598  
G01 X-0.6880 Y1.0602  
G00 Z0.0500  
G00 X-0.6139 Y1.1415  
G01 Z-0.0040 F10    
G01 X-0.6335 Y1.1611  F20    
G01 X-0.6335 Y1.1889  
G01 X-0.6229 Y1.1994  
G01 X-0.6290 Y1.2451  
G01 X-0.6291 Y1.2454  
G01 X-0.6294 Y1.2477  
G01 X-0.6297 Y1.2500  
G01 X-0.6296 Y1.2502  
G01 X-0.6440 Y1.3847  
G01 X-0.7058 Y1.5165  
G01 X-0.7139 Y1.5165  
G01 X-0.7335 Y1.5361  
G01 X-0.7335 Y1.5639  
G01 X-0.7139 Y1.5835  
G01 X-0.6861 Y1.5835  
G01 X-0.6821 Y1.5795  
G01 X-0.6263 Y1.5795  
G01 X-0.6250 Y1.5797  
G01 X-0.6237 Y1.5795  
G01 X-0.6224 Y1.5795  
G01 X-0.6212 Y1.5792  
G01 X-0.5871 Y1.5746  
G01 X-0.6168 Y1.6250  
G01 X-0.6180 Y1.6272  
G01 X-0.6181 Y1.6273  
G01 X-0.6188 Y1.6297  
G01 X-0.6287 Y1.6646  
G01 X-0.6535 Y1.7487  
G01 X-0.6541 Y1.7503  
G01 X-0.6542 Y1.7511  
G01 X-0.6544 Y1.7520  
G01 X-0.6545 Y1.7537  
G01 X-0.6592 Y1.7964  
G01 X-0.6595 Y1.7974  
G01 X-0.6595 Y1.7989  
G01 X-0.6597 Y1.8004  
G01 X-0.6595 Y1.8015  
G01 X-0.6595 Y1.9319  
G01 X-0.6945 Y1.9669  
G01 X-0.6967 Y1.9665  
G01 X-0.7033 Y1.9665  
G01 X-0.7098 Y1.9678  
G01 X-0.7159 Y1.9703  
G01 X-0.7214 Y1.9740  
G01 X-0.7260 Y1.9786  
G01 X-0.7297 Y1.9841  
G01 X-0.7322 Y1.9902  
G01 X-0.7335 Y1.9967  
G01 X-0.7335 Y2.0033  
G01 X-0.7322 Y2.0098  
G01 X-0.7297 Y2.0159  
G01 X-0.7260 Y2.0214  
G01 X-0.7214 Y2.0260  
G01 X-0.7159 Y2.0297  
G01 X-0.7098 Y2.0322  
G01 X-0.7033 Y2.0335  
G01 X-0.6967 Y2.0335  
G01 X-0.6902 Y2.0322  
G01 X-0.6841 Y2.0297  
G01 X-0.6786 Y2.0260  
G01 X-0.6740 Y2.0214  
G01 X-0.6703 Y2.0159  
G01 X-0.6678 Y2.0098  
G01 X-0.6665 Y2.0033  
G01 X-0.6665 Y1.9967  
G01 X-0.6669 Y1.9945  
G01 X-0.6280 Y1.9556  
G01 X-0.6244 Y1.9520  
G01 X-0.6218 Y1.9475  
G01 X-0.6205 Y1.9426  
G01 X-0.6205 Y1.8011  
G01 X-0.6158 Y1.7589  
G01 X-0.5920 Y1.6779  
G01 X-0.5913 Y1.6754  
G01 X-0.5906 Y1.6730  
G01 X-0.5819 Y1.6427  
G01 X-0.5471 Y1.5835  
G01 X-0.5361 Y1.5835  
G01 X-0.5165 Y1.5639  
G01 X-0.5165 Y1.5361  
G01 X-0.5361 Y1.5165  
G01 X-0.5639 Y1.5165  
G01 X-0.5820 Y1.5346  
G01 X-0.6263 Y1.5405  
G01 X-0.6665 Y1.5405  
G01 X-0.6665 Y1.5361  
G01 X-0.6702 Y1.5324  
G01 X-0.6081 Y1.4000  
G01 X-0.6077 Y1.3994  
G01 X-0.6071 Y1.3977  
G01 X-0.6063 Y1.3960  
G01 X-0.6061 Y1.3953  
G01 X-0.6059 Y1.3946  
G01 X-0.6057 Y1.3928  
G01 X-0.6054 Y1.3909  
G01 X-0.6054 Y1.3902  
G01 X-0.5906 Y1.2523  
G01 X-0.5846 Y1.2070  
G01 X-0.5665 Y1.1889  
G01 X-0.5665 Y1.1611  
G01 X-0.5861 Y1.1415  
G01 X-0.6139 Y1.1415  
G00 Z0.0500  
G00 X-0.9915 Y1.3111  
G01 Z-0.0040 F10    
G01 X-1.0111 Y1.2915  F20    
G01 X-1.0389 Y1.2915  
G01 X-1.0585 Y1.3111  
G01 X-1.0585 Y1.3389  
G01 X-1.0535 Y1.3438  
G01 X-1.0926 Y1.4415  
G01 X-1.0932 Y1.4425  
G01 X-1.0935 Y1.4438  
G01 X-1.0941 Y1.4451  
G01 X-1.0942 Y1.4463  
G01 X-1.0945 Y1.4474  
G01 X-1.0945 Y1.4488  
G01 X-1.0947 Y1.4502  
G01 X-1.0945 Y1.4514  
G01 X-1.0945 Y1.6225  
G01 X-1.0945 Y1.6250  
G01 X-1.0945 Y1.6276  
G01 X-1.0938 Y1.6301  
G01 X-1.0932 Y1.6325  
G01 X-1.0260 Y1.8787  
G01 X-1.0297 Y1.8841  
G01 X-1.0322 Y1.8902  
G01 X-1.0335 Y1.8967  
G01 X-1.0335 Y1.9033  
G01 X-1.0322 Y1.9098  
G01 X-1.0297 Y1.9159  
G01 X-1.0260 Y1.9214  
G01 X-1.0214 Y1.9260  
G01 X-1.0159 Y1.9297  
G01 X-1.0098 Y1.9322  
G01 X-1.0033 Y1.9335  
G01 X-0.9967 Y1.9335  
G01 X-0.9902 Y1.9322  
G01 X-0.9841 Y1.9297  
G01 X-0.9786 Y1.9260  
G01 X-0.9740 Y1.9214  
G01 X-0.9703 Y1.9159  
G01 X-0.9678 Y1.9098  
G01 X-0.9665 Y1.9033  
G01 X-0.9665 Y1.8967  
G01 X-0.9678 Y1.8902  
G01 X-0.9703 Y1.8841  
G01 X-0.9740 Y1.8786  
G01 X-0.9786 Y1.8740  
G01 X-0.9841 Y1.8703  
G01 X-0.9884 Y1.8686  
G01 X-1.0555 Y1.6224  
G01 X-1.0555 Y1.4538  
G01 X-1.0174 Y1.3585  
G01 X-1.0111 Y1.3585  
G01 X-0.9915 Y1.3389  
G01 X-0.9915 Y1.3111  
G00 Z0.0500  
G00 X-0.9861 Y1.5165  
G01 Z-0.0040 F10    
G01 X-1.0139 Y1.5165  F20    
G01 X-1.0335 Y1.5361  
G01 X-1.0335 Y1.5639  
G01 X-1.0195 Y1.5779  
G01 X-1.0195 Y1.5994  
G01 X-1.0196 Y1.6013  
G01 X-1.0195 Y1.6019  
G01 X-1.0195 Y1.6026  
G01 X-1.0190 Y1.6044  
G01 X-0.9945 Y1.7271  
G01 X-0.9945 Y1.7279  
G01 X-0.9940 Y1.7296  
G01 X-0.9936 Y1.7313  
G01 X-0.9933 Y1.7321  
G01 X-0.9445 Y1.9027  
G01 X-0.9445 Y2.0169  
G01 X-0.9945 Y2.0669  
G01 X-0.9967 Y2.0665  
G01 X-1.0033 Y2.0665  
G01 X-1.0098 Y2.0678  
G01 X-1.0159 Y2.0703  
G01 X-1.0214 Y2.0740  
G01 X-1.0260 Y2.0786  
G01 X-1.0297 Y2.0841  
G01 X-1.0322 Y2.0902  
G01 X-1.0335 Y2.0967  
G01 X-1.0335 Y2.1033  
G01 X-1.0322 Y2.1098  
G01 X-1.0297 Y2.1159  
G01 X-1.0260 Y2.1214  
G01 X-1.0214 Y2.1260  
G01 X-1.0159 Y2.1297  
G01 X-1.0098 Y2.1322  
G01 X-1.0033 Y2.1335  
G01 X-0.9967 Y2.1335  
G01 X-0.9902 Y2.1322  
G01 X-0.9841 Y2.1297  
G01 X-0.9786 Y2.1260  
G01 X-0.9740 Y2.1214  
G01 X-0.9703 Y2.1159  
G01 X-0.9678 Y2.1098  
G01 X-0.9665 Y2.1033  
G01 X-0.9665 Y2.0967  
G01 X-0.9669 Y2.0945  
G01 X-0.9094 Y2.0370  
G01 X-0.9068 Y2.0325  
G01 X-0.9055 Y2.0276  
G01 X-0.9055 Y1.9024  
G01 X-0.9055 Y1.9022  
G01 X-0.9055 Y1.8998  
G01 X-0.9055 Y1.8974  
G01 X-0.9055 Y1.8973  
G01 X-0.9055 Y1.8971  
G01 X-0.9062 Y1.8948  
G01 X-0.9068 Y1.8925  
G01 X-0.9069 Y1.8923  
G01 X-0.9560 Y1.7204  
G01 X-0.9805 Y1.5981  
G01 X-0.9805 Y1.5779  
G01 X-0.9665 Y1.5639  
G01 X-0.9665 Y1.5361  
G01 X-0.9861 Y1.5165  
G00 Z0.0500  
G00 X-0.9902 Y1.9678  
G01 Z-0.0040 F10    
G01 X-0.9967 Y1.9665  F20    
G01 X-1.0033 Y1.9665  
G01 X-1.0098 Y1.9678  
G01 X-1.0159 Y1.9703  
G01 X-1.0214 Y1.9740  
G01 X-1.0260 Y1.9786  
G01 X-1.0297 Y1.9841  
G01 X-1.0322 Y1.9902  
G01 X-1.0335 Y1.9967  
G01 X-1.0335 Y1.9989  
G01 X-1.0853 Y2.0334  
G01 X-1.0870 Y2.0344  
G01 X-1.0874 Y2.0348  
G01 X-1.0880 Y2.0352  
G01 X-1.0892 Y2.0367  
G01 X-1.0906 Y2.0380  
G01 X-1.0909 Y2.0386  
G01 X-1.0913 Y2.0391  
G01 X-1.0922 Y2.0408  
G01 X-1.0932 Y2.0425  
G01 X-1.0933 Y2.0431  
G01 X-1.0936 Y2.0437  
G01 X-1.0940 Y2.0456  
G01 X-1.0945 Y2.0474  
G01 X-1.0945 Y2.0481  
G01 X-1.0946 Y2.0487  
G01 X-1.0945 Y2.0506  
G01 X-1.0945 Y2.2526  
G01 X-1.0932 Y2.2575  
G01 X-1.0906 Y2.2620  
G01 X-1.0439 Y2.3087  
G01 X-1.0215 Y2.5992  
G01 X-1.0335 Y2.6111  
G01 X-1.0335 Y2.6389  
G01 X-1.0139 Y2.6585  
G01 X-0.9861 Y2.6585  
G01 X-0.9665 Y2.6389  
G01 X-0.9665 Y2.6111  
G01 X-0.9828 Y2.5949  
G01 X-1.0055 Y2.2993  
G01 X-1.0055 Y2.2974  
G01 X-1.0057 Y2.2967  
G01 X-1.0058 Y2.2959  
G01 X-1.0064 Y2.2942  
G01 X-1.0068 Y2.2925  
G01 X-1.0072 Y2.2918  
G01 X-1.0075 Y2.2911  
G01 X-1.0085 Y2.2896  
G01 X-1.0094 Y2.2880  
G01 X-1.0099 Y2.2875  
G01 X-1.0104 Y2.2869  
G01 X-1.0117 Y2.2857  
G01 X-1.0555 Y2.2419  
G01 X-1.0555 Y2.0604  
G01 X-1.0119 Y2.0313  
G01 X-1.0098 Y2.0322  
G01 X-1.0033 Y2.0335  
G01 X-0.9967 Y2.0335  
G01 X-0.9902 Y2.0322  
G01 X-0.9841 Y2.0297  
G01 X-0.9786 Y2.0260  
G01 X-0.9740 Y2.0214  
G01 X-0.9703 Y2.0159  
G01 X-0.9678 Y2.0098  
G01 X-0.9665 Y2.0033  
G01 X-0.9665 Y1.9967  
G01 X-0.9678 Y1.9902  
G01 X-0.9703 Y1.9841  
G01 X-0.9740 Y1.9786  
G01 X-0.9786 Y1.9740  
G01 X-0.9841 Y1.9703  
G01 X-0.9902 Y1.9678  
G00 Z0.0500  
G00 X-0.7214 Y2.0740  
G01 Z-0.0040 F10    
G01 X-0.7260 Y2.0786  F20    
G01 X-0.7297 Y2.0841  
G01 X-0.7322 Y2.0902  
G01 X-0.7335 Y2.0967  
G01 X-0.7335 Y2.1033  
G01 X-0.7322 Y2.1098  
G01 X-0.7297 Y2.1159  
G01 X-0.7260 Y2.1214  
G01 X-0.7214 Y2.1260  
G01 X-0.7159 Y2.1297  
G01 X-0.7098 Y2.1322  
G01 X-0.7033 Y2.1335  
G01 X-0.6967 Y2.1335  
G01 X-0.6902 Y2.1322  
G01 X-0.6841 Y2.1297  
G01 X-0.6786 Y2.1260  
G01 X-0.6776 Y2.1250  
G01 X-0.6445 Y2.1581  
G01 X-0.6445 Y2.3276  
G01 X-0.6432 Y2.3325  
G01 X-0.6406 Y2.3370  
G01 X-0.5335 Y2.4441  
G01 X-0.5335 Y2.4793  
G01 X-0.5322 Y2.4858  
G01 X-0.5297 Y2.4919  
G01 X-0.5260 Y2.4974  
G01 X-0.5214 Y2.5020  
G01 X-0.5159 Y2.5057  
G01 X-0.5098 Y2.5082  
G01 X-0.5033 Y2.5095  
G01 X-0.4967 Y2.5095  
G01 X-0.4902 Y2.5082  
G01 X-0.4841 Y2.5057  
G01 X-0.4786 Y2.5020  
G01 X-0.4740 Y2.4974  
G01 X-0.4703 Y2.4919  
G01 X-0.4678 Y2.4858  
G01 X-0.4665 Y2.4793  
G01 X-0.4665 Y2.4695  
G01 X-0.3835 Y2.4695  
G01 X-0.3835 Y2.4793  
G01 X-0.3822 Y2.4858  
G01 X-0.3797 Y2.4919  
G01 X-0.3760 Y2.4974  
G01 X-0.3714 Y2.5020  
G01 X-0.3659 Y2.5057  
G01 X-0.3598 Y2.5082  
G01 X-0.3533 Y2.5095  
G01 X-0.3467 Y2.5095  
G01 X-0.3402 Y2.5082  
G01 X-0.3341 Y2.5057  
G01 X-0.3286 Y2.5020  
G01 X-0.3240 Y2.4974  
G01 X-0.3203 Y2.4919  
G01 X-0.3178 Y2.4858  
G01 X-0.3165 Y2.4793  
G01 X-0.3165 Y2.4595  
G01 X-0.2374 Y2.4595  
G01 X-0.2325 Y2.4582  
G01 X-0.2280 Y2.4556  
G01 X-0.2244 Y2.4520  
G01 X-0.1169 Y2.3445  
G01 X-0.1118 Y2.3461  
G01 X-0.1040 Y2.3474  
G01 X-0.0960 Y2.3474  
G01 X-0.0882 Y2.3461  
G01 X-0.0806 Y2.3437  
G01 X-0.0735 Y2.3400  
G01 X-0.0671 Y2.3354  
G01 X-0.0615 Y2.3297  
G01 X-0.0568 Y2.3233  
G01 X-0.0532 Y2.3162  
G01 X-0.0507 Y2.3087  
G01 X-0.0495 Y2.3008  
G01 X-0.0495 Y2.2929  
G01 X-0.0507 Y2.2850  
G01 X-0.0532 Y2.2775  
G01 X-0.0568 Y2.2704  
G01 X-0.0615 Y2.2640  
G01 X-0.0671 Y2.2583  
G01 X-0.0735 Y2.2537  
G01 X-0.0806 Y2.2501  
G01 X-0.0882 Y2.2476  
G01 X-0.0960 Y2.2464  
G01 X-0.1040 Y2.2464  
G01 X-0.1118 Y2.2476  
G01 X-0.1194 Y2.2501  
G01 X-0.1265 Y2.2537  
G01 X-0.1329 Y2.2583  
G01 X-0.1385 Y2.2640  
G01 X-0.1432 Y2.2704  
G01 X-0.1468 Y2.2775  
G01 X-0.1493 Y2.2850  
G01 X-0.1505 Y2.2929  
G01 X-0.1505 Y2.3008  
G01 X-0.1493 Y2.3087  
G01 X-0.1468 Y2.3162  
G01 X-0.1458 Y2.3182  
G01 X-0.2481 Y2.4205  
G01 X-0.3165 Y2.4205  
G01 X-0.3178 Y2.4142  
G01 X-0.3203 Y2.4081  
G01 X-0.3240 Y2.4026  
G01 X-0.3286 Y2.3980  
G01 X-0.3341 Y2.3943  
G01 X-0.3402 Y2.3918  
G01 X-0.3467 Y2.3905  
G01 X-0.3533 Y2.3905  
G01 X-0.3598 Y2.3918  
G01 X-0.3659 Y2.3943  
G01 X-0.3714 Y2.3980  
G01 X-0.3760 Y2.4026  
G01 X-0.3797 Y2.4081  
G01 X-0.3822 Y2.4142  
G01 X-0.3835 Y2.4207  
G01 X-0.3835 Y2.4305  
G01 X-0.4665 Y2.4305  
G01 X-0.4665 Y2.4207  
G01 X-0.4678 Y2.4142  
G01 X-0.4703 Y2.4081  
G01 X-0.4740 Y2.4026  
G01 X-0.4786 Y2.3980  
G01 X-0.4841 Y2.3943  
G01 X-0.4902 Y2.3918  
G01 X-0.4967 Y2.3905  
G01 X-0.5033 Y2.3905  
G01 X-0.5098 Y2.3918  
G01 X-0.5159 Y2.3943  
G01 X-0.5214 Y2.3980  
G01 X-0.5229 Y2.3995  
G01 X-0.6055 Y2.3169  
G01 X-0.6055 Y2.1474  
G01 X-0.6068 Y2.1425  
G01 X-0.6094 Y2.1380  
G01 X-0.6130 Y2.1344  
G01 X-0.6560 Y2.0914  
G01 X-0.5886 Y2.0408  
G01 X-0.5868 Y2.0396  
G01 X-0.5865 Y2.0393  
G01 X-0.5862 Y2.0391  
G01 X-0.5849 Y2.0373  
G01 X-0.5835 Y2.0357  
G01 X-0.5833 Y2.0353  
G01 X-0.5831 Y2.0350  
G01 X-0.5822 Y2.0330  
G01 X-0.5813 Y2.0310  
G01 X-0.5812 Y2.0306  
G01 X-0.5811 Y2.0303  
G01 X-0.5807 Y2.0281  
G01 X-0.5363 Y1.7835  
G01 X-0.5361 Y1.7835  
G01 X-0.5165 Y1.7639  
G01 X-0.5165 Y1.7361  
G01 X-0.5361 Y1.7165  
G01 X-0.5639 Y1.7165  
G01 X-0.5835 Y1.7361  
G01 X-0.5835 Y1.7639  
G01 X-0.5741 Y1.7733  
G01 X-0.6178 Y2.0140  
G01 X-0.6898 Y2.0680  
G01 X-0.6902 Y2.0678  
G01 X-0.6967 Y2.0665  
G01 X-0.7033 Y2.0665  
G01 X-0.7098 Y2.0678  
G01 X-0.7159 Y2.0703  
G01 X-0.7214 Y2.0740  
G00 Z0.0500  
G00 X-0.5214 Y2.0980  
G01 Z-0.0040 F10    
G01 X-0.5260 Y2.1026  F20    
G01 X-0.5297 Y2.1081  
G01 X-0.5322 Y2.1142  
G01 X-0.5335 Y2.1207  
G01 X-0.5335 Y2.1793  
G01 X-0.5322 Y2.1858  
G01 X-0.5297 Y2.1919  
G01 X-0.5260 Y2.1974  
G01 X-0.5214 Y2.2020  
G01 X-0.5159 Y2.2057  
G01 X-0.5098 Y2.2082  
G01 X-0.5033 Y2.2095  
G01 X-0.4967 Y2.2095  
G01 X-0.4902 Y2.2082  
G01 X-0.4841 Y2.2057  
G01 X-0.4786 Y2.2020  
G01 X-0.4740 Y2.1974  
G01 X-0.4703 Y2.1919  
G01 X-0.4678 Y2.1858  
G01 X-0.4665 Y2.1793  
G01 X-0.4665 Y2.1207  
G01 X-0.4678 Y2.1142  
G01 X-0.4703 Y2.1081  
G01 X-0.4740 Y2.1026  
G01 X-0.4786 Y2.0980  
G01 X-0.4805 Y2.0967  
G01 X-0.4805 Y2.0500  
G01 X-0.4793 Y2.0500  
G01 X-0.4500 Y2.0207  
G01 X-0.4500 Y1.9793  
G01 X-0.4793 Y1.9500  
G01 X-0.5207 Y1.9500  
G01 X-0.5500 Y1.9793  
G01 X-0.5500 Y2.0207  
G01 X-0.5207 Y2.0500  
G01 X-0.5195 Y2.0500  
G01 X-0.5195 Y2.0967  
G01 X-0.5214 Y2.0980  
G00 Z0.0500  
G00 X-0.3795 Y2.1079  
G01 Z-0.0040 F10    
G01 X-0.3797 Y2.1081  F20    
G01 X-0.3822 Y2.1142  
G01 X-0.3835 Y2.1207  
G01 X-0.3835 Y2.1793  
G01 X-0.3822 Y2.1858  
G01 X-0.3797 Y2.1919  
G01 X-0.3760 Y2.1974  
G01 X-0.3714 Y2.2020  
G01 X-0.3659 Y2.2057  
G01 X-0.3598 Y2.2082  
G01 X-0.3533 Y2.2095  
G01 X-0.3467 Y2.2095  
G01 X-0.3402 Y2.2082  
G01 X-0.3341 Y2.2057  
G01 X-0.3286 Y2.2020  
G01 X-0.3240 Y2.1974  
G01 X-0.3203 Y2.1919  
G01 X-0.3178 Y2.1858  
G01 X-0.3165 Y2.1793  
G01 X-0.3165 Y2.1207  
G01 X-0.3178 Y2.1142  
G01 X-0.3203 Y2.1081  
G01 X-0.3240 Y2.1026  
G01 X-0.3286 Y2.0980  
G01 X-0.3341 Y2.0943  
G01 X-0.3402 Y2.0918  
G01 X-0.3405 Y2.0917  
G01 X-0.3405 Y2.0362  
G01 X-0.3250 Y2.0207  
G01 X-0.3250 Y1.9793  
G01 X-0.3543 Y1.9500  
G01 X-0.3957 Y1.9500  
G01 X-0.4250 Y1.9793  
G01 X-0.4250 Y2.0207  
G01 X-0.3957 Y2.0500  
G01 X-0.3795 Y2.0500  
G01 X-0.3795 Y2.1079  
G00 Z0.0500  
G00 X-0.1385 Y1.9360  
G01 Z-0.0040 F10    
G01 X-0.1329 Y1.9417  F20    
G01 X-0.1265 Y1.9463  
G01 X-0.1194 Y1.9499  
G01 X-0.1118 Y1.9524  
G01 X-0.1040 Y1.9536  
G01 X-0.0960 Y1.9536  
G01 X-0.0882 Y1.9524  
G01 X-0.0806 Y1.9499  
G01 X-0.0735 Y1.9463  
G01 X-0.0671 Y1.9417  
G01 X-0.0615 Y1.9360  
G01 X-0.0568 Y1.9296  
G01 X-0.0532 Y1.9225  
G01 X-0.0507 Y1.9150  
G01 X-0.0495 Y1.9071  
G01 X-0.0495 Y1.8992  
G01 X-0.0507 Y1.8913  
G01 X-0.0532 Y1.8838  
G01 X-0.0568 Y1.8767  
G01 X-0.0615 Y1.8703  
G01 X-0.0671 Y1.8646  
G01 X-0.0735 Y1.8600  
G01 X-0.0806 Y1.8563  
G01 X-0.0882 Y1.8539  
G01 X-0.0960 Y1.8526  
G01 X-0.1040 Y1.8526  
G01 X-0.1118 Y1.8539  
G01 X-0.1194 Y1.8563  
G01 X-0.1265 Y1.8600  
G01 X-0.1329 Y1.8646  
G01 X-0.1385 Y1.8703  
G01 X-0.1432 Y1.8767  
G01 X-0.1468 Y1.8838  
G01 X-0.1493 Y1.8913  
G01 X-0.1505 Y1.8992  
G01 X-0.1505 Y1.9071  
G01 X-0.1493 Y1.9150  
G01 X-0.1468 Y1.9225  
G01 X-0.1432 Y1.9296  
G01 X-0.1385 Y1.9360  
G00 Z0.0500  
G00 X-0.6665 Y2.6111  
G01 Z-0.0040 F10    
G01 X-0.6861 Y2.5915  F20    
G01 X-0.7139 Y2.5915  
G01 X-0.7335 Y2.6111  
G01 X-0.7335 Y2.6389  
G01 X-0.7139 Y2.6585  
G01 X-0.7063 Y2.6585  
G01 X-0.6735 Y2.7313  
G01 X-0.6742 Y2.7334  
G01 X-0.6756 Y2.7423  
G01 X-0.6756 Y2.8514  
G01 X-0.6742 Y2.8603  
G01 X-0.6714 Y2.8689  
G01 X-0.6673 Y2.8770  
G01 X-0.6620 Y2.8843  
G01 X-0.6556 Y2.8907  
G01 X-0.6482 Y2.8960  
G01 X-0.6402 Y2.9001  
G01 X-0.6316 Y2.9029  
G01 X-0.6226 Y2.9044  
G01 X-0.6136 Y2.9044  
G01 X-0.6046 Y2.9029  
G01 X-0.5960 Y2.9001  
G01 X-0.5880 Y2.8960  
G01 X-0.5807 Y2.8907  
G01 X-0.5743 Y2.8843  
G01 X-0.5689 Y2.8770  
G01 X-0.5648 Y2.8689  
G01 X-0.5620 Y2.8603  
G01 X-0.5606 Y2.8514  
G01 X-0.5606 Y2.7423  
G01 X-0.5620 Y2.7334  
G01 X-0.5648 Y2.7248  
G01 X-0.5689 Y2.7167  
G01 X-0.5743 Y2.7094  
G01 X-0.5807 Y2.7030  
G01 X-0.5880 Y2.6977  
G01 X-0.5960 Y2.6936  
G01 X-0.6046 Y2.6908  
G01 X-0.6136 Y2.6894  
G01 X-0.6226 Y2.6894  
G01 X-0.6316 Y2.6908  
G01 X-0.6402 Y2.6936  
G01 X-0.6464 Y2.6967  
G01 X-0.6706 Y2.6429  
G01 X-0.6665 Y2.6389  
G01 X-0.6665 Y2.6111  
G00 Z0.0500  
G00 X-0.0836 Y0.3115  
G01 Z-0.0040 F10    
G01 X-0.0846 Y0.3107  F20    
G01 X-0.0855 Y0.3098  
G01 X-0.0868 Y0.3090  
G01 X-0.1862 Y0.2341  
G01 X-0.1871 Y0.2332  
G01 X-0.1884 Y0.2325  
G01 X-0.1896 Y0.2316  
G01 X-0.1908 Y0.2311  
G01 X-0.1919 Y0.2304  
G01 X-0.1933 Y0.2300  
G01 X-0.1947 Y0.2295  
G01 X-0.1960 Y0.2293  
G01 X-0.1972 Y0.2290  
G01 X-0.1987 Y0.2290  
G01 X-0.2002 Y0.2288  
G01 X-0.2015 Y0.2290  
G01 X-0.6229 Y0.2290  
G01 X-0.6236 Y0.2289  
G01 X-0.6257 Y0.2290  
G01 X-0.6278 Y0.2290  
G01 X-0.6284 Y0.2292  
G01 X-0.6291 Y0.2292  
G01 X-0.6311 Y0.2299  
G01 X-0.6331 Y0.2304  
G01 X-0.6337 Y0.2308  
G01 X-0.6343 Y0.2310  
G01 X-0.6361 Y0.2322  
G01 X-0.6379 Y0.2332  
G01 X-0.6384 Y0.2337  
G01 X-0.7111 Y0.2822  
G01 X-0.7129 Y0.2832  
G01 X-0.7134 Y0.2837  
G01 X-0.7139 Y0.2841  
G01 X-0.7153 Y0.2856  
G01 X-0.7168 Y0.2871  
G01 X-0.7171 Y0.2877  
G01 X-0.7176 Y0.2882  
G01 X-0.7185 Y0.2901  
G01 X-0.7196 Y0.2919  
G01 X-0.7197 Y0.2926  
G01 X-0.7200 Y0.2932  
G01 X-0.7205 Y0.2952  
G01 X-0.7210 Y0.2972  
G01 X-0.7210 Y0.2979  
G01 X-0.7211 Y0.2986  
G01 X-0.7210 Y0.3007  
G01 X-0.7210 Y0.4163  
G01 X-0.7337 Y0.4290  
G01 X-0.7559 Y0.4290  
G01 X-0.7809 Y0.4040  
G01 X-0.8191 Y0.4040  
G01 X-0.8460 Y0.4309  
G01 X-0.8460 Y0.4364  
G01 X-0.8540 Y0.4377  
G01 X-0.8540 Y0.4309  
G01 X-0.8809 Y0.4040  
G01 X-0.9191 Y0.4040  
G01 X-0.9460 Y0.4309  
G01 X-0.9460 Y0.4399  
G01 X-0.9478 Y0.4403  
G01 X-0.9479 Y0.4404  
G01 X-0.9481 Y0.4404  
G01 X-0.9503 Y0.4417  
G01 X-0.9526 Y0.4430  
G01 X-0.9527 Y0.4431  
G01 X-0.9529 Y0.4432  
G01 X-0.9547 Y0.4450  
G01 X-0.9566 Y0.4468  
G01 X-0.9567 Y0.4470  
G01 X-0.9568 Y0.4471  
G01 X-0.9581 Y0.4493  
G01 X-0.9594 Y0.4516  
G01 X-0.9595 Y0.4517  
G01 X-0.9596 Y0.4519  
G01 X-0.9602 Y0.4544  
G01 X-0.9610 Y0.4569  
G01 X-0.9610 Y0.4571  
G01 X-0.9610 Y0.4572  
G01 X-0.9610 Y0.4598  
G01 X-0.9610 Y0.4624  
G01 X-0.9610 Y0.4626  
G01 X-0.9610 Y0.4628  
G01 X-0.9603 Y0.4653  
G01 X-0.9597 Y0.4678  
G01 X-0.9596 Y0.4679  
G01 X-0.9596 Y0.4681  
G01 X-0.9583 Y0.4703  
G01 X-0.9570 Y0.4726  
G01 X-0.9569 Y0.4727  
G01 X-0.9568 Y0.4729  
G01 X-0.9550 Y0.4747  
G01 X-0.9532 Y0.4766  
G01 X-0.9530 Y0.4767  
G01 X-0.9529 Y0.4768  
G01 X-0.9507 Y0.4781  
G01 X-0.9484 Y0.4794  
G01 X-0.9483 Y0.4795  
G01 X-0.9481 Y0.4796  
G01 X-0.9456 Y0.4802  
G01 X-0.9431 Y0.4810  
G01 X-0.9429 Y0.4810  
G01 X-0.9428 Y0.4810  
G01 X-0.9402 Y0.4810  
G01 X-0.9376 Y0.4810  
G01 X-0.9374 Y0.4810  
G01 X-0.9341 Y0.4810  
G01 X-0.9191 Y0.4960  
G01 X-0.9131 Y0.4960  
G01 X-0.9167 Y0.5040  
G01 X-0.9191 Y0.5040  
G01 X-0.9460 Y0.5309  
G01 X-0.9460 Y0.5691  
G01 X-0.9191 Y0.5960  
G01 X-0.8810 Y0.5960  
G01 X-0.8810 Y0.6040  
G01 X-0.9191 Y0.6040  
G01 X-0.9460 Y0.6309  
G01 X-0.9460 Y0.6399  
G01 X-0.9478 Y0.6403  
G01 X-0.9479 Y0.6404  
G01 X-0.9481 Y0.6404  
G01 X-0.9500 Y0.6415  
G01 X-1.0727 Y0.6740  
G01 X-1.0754 Y0.6747  
G01 X-1.0780 Y0.6754  
G01 X-1.0805 Y0.6768  
G01 X-1.0828 Y0.6782  
G01 X-1.0848 Y0.6801  
G01 X-1.0868 Y0.6821  
G01 X-1.0882 Y0.6845  
G01 X-1.0895 Y0.6868  
G01 X-1.0903 Y0.6895  
G01 X-1.0910 Y0.6922  
G01 X-1.0910 Y0.6950  
G01 X-1.0910 Y0.6977  
G01 X-1.0910 Y1.1380  
G01 X-1.0911 Y1.1387  
G01 X-1.0910 Y1.1407  
G01 X-1.0910 Y1.1428  
G01 X-1.0908 Y1.1435  
G01 X-1.0908 Y1.1442  
G01 X-1.0901 Y1.1461  
G01 X-1.0896 Y1.1481  
G01 X-1.0892 Y1.1488  
G01 X-1.0890 Y1.1495  
G01 X-1.0878 Y1.1511  
G01 X-1.0868 Y1.1529  
G01 X-1.0863 Y1.1534  
G01 X-1.0859 Y1.1540  
G01 X-1.0843 Y1.1554  
G01 X-1.0829 Y1.1568  
G01 X-1.0822 Y1.1572  
G01 X-1.0817 Y1.1577  
G01 X-1.0799 Y1.1586  
G01 X-1.0781 Y1.1596  
G01 X-1.0774 Y1.1598  
G01 X-0.8953 Y1.2485  
G01 X-0.8725 Y1.6730  
G01 X-0.8850 Y1.6855  
G01 X-0.8850 Y1.7145  
G01 X-0.8645 Y1.7350  
G01 X-0.8572 Y1.7350  
G01 X-0.8206 Y1.8154  
G01 X-0.8060 Y1.9760  
G01 X-0.8060 Y2.1390  
G01 X-0.8062 Y2.1408  
G01 X-0.8060 Y2.1418  
G01 X-0.8060 Y2.1428  
G01 X-0.8055 Y2.1445  
G01 X-0.8052 Y2.1463  
G01 X-0.8048 Y2.1472  
G01 X-0.8046 Y2.1481  
G01 X-0.8037 Y2.1497  
G01 X-0.8029 Y2.1513  
G01 X-0.8023 Y2.1521  
G01 X-0.8018 Y2.1529  
G01 X-0.8005 Y2.1542  
G01 X-0.7994 Y2.1556  
G01 X-0.7986 Y2.1561  
G01 X-0.7979 Y2.1568  
G01 X-0.7963 Y2.1577  
G01 X-0.7350 Y2.2010  
G01 X-0.7350 Y2.2034  
G01 X-0.7337 Y2.2099  
G01 X-0.7909 Y2.2862  
G01 X-0.7918 Y2.2871  
G01 X-0.7926 Y2.2884  
G01 X-0.7935 Y2.2896  
G01 X-0.7939 Y2.2908  
G01 X-0.7946 Y2.2919  
G01 X-0.7950 Y2.2933  
G01 X-0.7955 Y2.2947  
G01 X-0.7957 Y2.2960  
G01 X-0.7960 Y2.2972  
G01 X-0.7960 Y2.2987  
G01 X-0.7962 Y2.3002  
G01 X-0.7960 Y2.3015  
G01 X-0.7960 Y2.3215  
G01 X-0.8100 Y2.3355  
G01 X-0.8100 Y2.3645  
G01 X-0.8011 Y2.3734  
G01 X-0.8205 Y2.4702  
G01 X-0.8210 Y2.4722  
G01 X-0.8210 Y2.4729  
G01 X-0.8211 Y2.4736  
G01 X-0.8210 Y2.4757  
G01 X-0.8210 Y2.9028  
G01 X-0.8196 Y2.9081  
G01 X-0.8168 Y2.9129  
G01 X-0.7668 Y2.9629  
G01 X-0.7629 Y2.9668  
G01 X-0.7581 Y2.9696  
G01 X-0.7528 Y2.9710  
G01 X-0.2488 Y2.9710  
G01 X-0.2435 Y2.9696  
G01 X-0.2387 Y2.9668  
G01 X-0.1491 Y2.8773  
G01 X-0.1489 Y2.8778  
G01 X-0.1434 Y2.8853  
G01 X-0.1369 Y2.8919  
G01 X-0.1293 Y2.8973  
G01 X-0.1211 Y2.9015  
G01 X-0.1122 Y2.9044  
G01 X-0.1031 Y2.9059  
G01 X-0.0938 Y2.9059  
G01 X-0.0846 Y2.9044  
G01 X-0.0758 Y2.9015  
G01 X-0.0675 Y2.8973  
G01 X-0.0600 Y2.8919  
G01 X-0.0534 Y2.8853  
G01 X-0.0480 Y2.8778  
G01 X-0.0437 Y2.8695  
G01 X-0.0409 Y2.8607  
G01 X-0.0394 Y2.8515  
G01 X-0.0394 Y2.7422  
G01 X-0.0409 Y2.7330  
G01 X-0.0437 Y2.7242  
G01 X-0.0480 Y2.7159  
G01 X-0.0534 Y2.7084  
G01 X-0.0600 Y2.7018  
G01 X-0.0675 Y2.6964  
G01 X-0.0758 Y2.6922  
G01 X-0.0846 Y2.6893  
G01 X-0.0938 Y2.6879  
G01 X-0.1031 Y2.6879  
G01 X-0.1122 Y2.6893  
G01 X-0.1211 Y2.6922  
G01 X-0.1293 Y2.6964  
G01 X-0.1369 Y2.7018  
G01 X-0.1434 Y2.7084  
G01 X-0.1489 Y2.7159  
G01 X-0.1531 Y2.7242  
G01 X-0.1560 Y2.7330  
G01 X-0.1574 Y2.7422  
G01 X-0.1574 Y2.8262  
G01 X-0.2603 Y2.9290  
G01 X-0.7413 Y2.9290  
G01 X-0.7790 Y2.8913  
G01 X-0.7790 Y2.4771  
G01 X-0.7606 Y2.3850  
G01 X-0.7400 Y2.3645  
G01 X-0.7400 Y2.3355  
G01 X-0.7540 Y2.3215  
G01 X-0.7540 Y2.3070  
G01 X-0.7000 Y2.2350  
G01 X-0.6966 Y2.2350  
G01 X-0.6898 Y2.2337  
G01 X-0.6834 Y2.2310  
G01 X-0.6777 Y2.2272  
G01 X-0.6728 Y2.2223  
G01 X-0.6690 Y2.2166  
G01 X-0.6663 Y2.2102  
G01 X-0.6650 Y2.2034  
G01 X-0.6650 Y2.1966  
G01 X-0.6663 Y2.1898  
G01 X-0.6690 Y2.1834  
G01 X-0.6728 Y2.1777  
G01 X-0.6777 Y2.1728  
G01 X-0.6834 Y2.1690  
G01 X-0.6898 Y2.1663  
G01 X-0.6966 Y2.1650  
G01 X-0.7034 Y2.1650  
G01 X-0.7102 Y2.1663  
G01 X-0.7109 Y2.1666  
G01 X-0.7640 Y2.1291  
G01 X-0.7640 Y1.9768  
G01 X-0.7638 Y1.9759  
G01 X-0.7640 Y1.9740  
G01 X-0.7640 Y1.9722  
G01 X-0.7642 Y1.9713  
G01 X-0.7789 Y1.8101  
G01 X-0.7788 Y1.8093  
G01 X-0.7792 Y1.8073  
G01 X-0.7793 Y1.8053  
G01 X-0.7796 Y1.8046  
G01 X-0.7797 Y1.8038  
G01 X-0.7806 Y1.8020  
G01 X-0.7812 Y1.8002  
G01 X-0.7817 Y1.7995  
G01 X-0.8187 Y1.7182  
G01 X-0.8150 Y1.7145  
G01 X-0.8150 Y1.6855  
G01 X-0.8306 Y1.6699  
G01 X-0.8539 Y1.2365  
G01 X-0.8539 Y1.2363  
G01 X-0.8540 Y1.2337  
G01 X-0.8542 Y1.2311  
G01 X-0.8542 Y1.2309  
G01 X-0.8542 Y1.2308  
G01 X-0.8551 Y1.2283  
G01 X-0.8559 Y1.2259  
G01 X-0.8560 Y1.2257  
G01 X-0.8560 Y1.2255  
G01 X-0.8575 Y1.2234  
G01 X-0.8589 Y1.2212  
G01 X-0.8590 Y1.2211  
G01 X-0.8591 Y1.2210  
G01 X-0.8611 Y1.2193  
G01 X-0.8630 Y1.2175  
G01 X-0.8632 Y1.2174  
G01 X-0.8633 Y1.2173  
G01 X-0.8656 Y1.2162  
G01 X-0.8680 Y1.2150  
G01 X-0.8681 Y1.2150  
G01 X-1.0490 Y1.1269  
G01 X-1.0490 Y0.7112  
G01 X-0.9350 Y0.6810  
G01 X-0.9341 Y0.6810  
G01 X-0.9191 Y0.6960  
G01 X-0.8809 Y0.6960  
G01 X-0.8659 Y0.6810  
G01 X-0.8610 Y0.6810  
G01 X-0.8593 Y0.6812  
G01 X-0.8583 Y0.6810  
G01 X-0.8572 Y0.6810  
G01 X-0.8555 Y0.6805  
G01 X-0.8375 Y0.6775  
G01 X-0.8191 Y0.6960  
G01 X-0.7809 Y0.6960  
G01 X-0.7540 Y0.6691  
G01 X-0.7540 Y0.6309  
G01 X-0.7809 Y0.6040  
G01 X-0.8191 Y0.6040  
G01 X-0.8375 Y0.6225  
G01 X-0.8390 Y0.6222  
G01 X-0.8390 Y0.5778  
G01 X-0.8375 Y0.5775  
G01 X-0.8191 Y0.5960  
G01 X-0.7809 Y0.5960  
G01 X-0.7540 Y0.5691  
G01 X-0.7540 Y0.5309  
G01 X-0.7809 Y0.5040  
G01 X-0.8191 Y0.5040  
G01 X-0.8375 Y0.5225  
G01 X-0.8390 Y0.5222  
G01 X-0.8390 Y0.4778  
G01 X-0.8375 Y0.4775  
G01 X-0.8191 Y0.4960  
G01 X-0.7809 Y0.4960  
G01 X-0.7559 Y0.4710  
G01 X-0.7222 Y0.4710  
G01 X-0.7169 Y0.4696  
G01 X-0.7121 Y0.4668  
G01 X-0.7082 Y0.4629  
G01 X-0.6832 Y0.4379  
G01 X-0.6804 Y0.4331  
G01 X-0.6790 Y0.4278  
G01 X-0.6790 Y0.3112  
G01 X-0.6186 Y0.2710  
G01 X-0.2070 Y0.2710  
G01 X-0.1194 Y0.3370  
G01 X-0.1194 Y0.4416  
G01 X-0.1211 Y0.4422  
G01 X-0.1293 Y0.4464  
G01 X-0.1369 Y0.4518  
G01 X-0.1434 Y0.4584  
G01 X-0.1489 Y0.4659  
G01 X-0.1531 Y0.4742  
G01 X-0.1560 Y0.4830  
G01 X-0.1574 Y0.4922  
G01 X-0.1574 Y0.6015  
G01 X-0.1560 Y0.6107  
G01 X-0.1531 Y0.6195  
G01 X-0.1489 Y0.6278  
G01 X-0.1434 Y0.6353  
G01 X-0.1369 Y0.6419  
G01 X-0.1293 Y0.6473  
G01 X-0.1211 Y0.6515  
G01 X-0.1122 Y0.6544  
G01 X-0.1031 Y0.6559  
G01 X-0.0938 Y0.6559  
G01 X-0.0846 Y0.6544  
G01 X-0.0758 Y0.6515  
G01 X-0.0675 Y0.6473  
G01 X-0.0600 Y0.6419  
G01 X-0.0534 Y0.6353  
G01 X-0.0480 Y0.6278  
G01 X-0.0437 Y0.6195  
G01 X-0.0409 Y0.6107  
G01 X-0.0394 Y0.6015  
G01 X-0.0394 Y0.4922  
G01 X-0.0409 Y0.4830  
G01 X-0.0437 Y0.4742  
G01 X-0.0480 Y0.4659  
G01 X-0.0534 Y0.4584  
G01 X-0.0600 Y0.4518  
G01 X-0.0675 Y0.4464  
G01 X-0.0758 Y0.4422  
G01 X-0.0774 Y0.4416  
G01 X-0.0774 Y0.3279  
G01 X-0.0772 Y0.3264  
G01 X-0.0774 Y0.3251  
G01 X-0.0774 Y0.3238  
G01 X-0.0778 Y0.3224  
G01 X-0.0780 Y0.3209  
G01 X-0.0785 Y0.3197  
G01 X-0.0789 Y0.3185  
G01 X-0.0796 Y0.3172  
G01 X-0.0802 Y0.3158  
G01 X-0.0810 Y0.3148  
G01 X-0.0816 Y0.3137  
G01 X-0.0827 Y0.3126  
G01 X-0.0836 Y0.3115  
G00 Z0.0500  
G00 X-0.4310 Y0.3112  
G01 Z-0.0040 F10    
G01 X-0.4365 Y0.3037  F20    
G01 X-0.4431 Y0.2971  
G01 X-0.4506 Y0.2917  
G01 X-0.4588 Y0.2874  
G01 X-0.4677 Y0.2846  
G01 X-0.4769 Y0.2831  
G01 X-0.5861 Y0.2831  
G01 X-0.5953 Y0.2846  
G01 X-0.6041 Y0.2874  
G01 X-0.6124 Y0.2917  
G01 X-0.6199 Y0.2971  
G01 X-0.6265 Y0.3037  
G01 X-0.6320 Y0.3112  
G01 X-0.6362 Y0.3195  
G01 X-0.6390 Y0.3283  
G01 X-0.6405 Y0.3375  
G01 X-0.6405 Y0.3468  
G01 X-0.6390 Y0.3559  
G01 X-0.6362 Y0.3648  
G01 X-0.6320 Y0.3730  
G01 X-0.6265 Y0.3806  
G01 X-0.6199 Y0.3871  
G01 X-0.6124 Y0.3926  
G01 X-0.6041 Y0.3968  
G01 X-0.5953 Y0.3997  
G01 X-0.5861 Y0.4011  
G01 X-0.4769 Y0.4011  
G01 X-0.4677 Y0.3997  
G01 X-0.4588 Y0.3968  
G01 X-0.4506 Y0.3926  
G01 X-0.4431 Y0.3871  
G01 X-0.4365 Y0.3806  
G01 X-0.4310 Y0.3730  
G01 X-0.4268 Y0.3648  
G01 X-0.4239 Y0.3559  
G01 X-0.4225 Y0.3468  
G01 X-0.4225 Y0.3375  
G01 X-0.4239 Y0.3283  
G01 X-0.4268 Y0.3195  
G01 X-0.4310 Y0.3112  
G00 Z0.0500  
G00 X-0.5731 Y0.4584  
G01 Z-0.0040 F10    
G01 X-0.5797 Y0.4518  F20    
G01 X-0.5872 Y0.4464  
G01 X-0.5955 Y0.4422  
G01 X-0.6043 Y0.4393  
G01 X-0.6135 Y0.4379  
G01 X-0.6228 Y0.4379  
G01 X-0.6319 Y0.4393  
G01 X-0.6408 Y0.4422  
G01 X-0.6490 Y0.4464  
G01 X-0.6565 Y0.4518  
G01 X-0.6631 Y0.4584  
G01 X-0.6686 Y0.4659  
G01 X-0.6728 Y0.4742  
G01 X-0.6757 Y0.4830  
G01 X-0.6771 Y0.4922  
G01 X-0.6771 Y0.6015  
G01 X-0.6757 Y0.6107  
G01 X-0.6728 Y0.6195  
G01 X-0.6686 Y0.6278  
G01 X-0.6631 Y0.6353  
G01 X-0.6565 Y0.6419  
G01 X-0.6490 Y0.6473  
G01 X-0.6408 Y0.6515  
G01 X-0.6319 Y0.6544  
G01 X-0.6228 Y0.6559  
G01 X-0.6210 Y0.6559  
G01 X-0.6210 Y0.8465  
G01 X-0.6350 Y0.8605  
G01 X-0.6350 Y0.8895  
G01 X-0.6145 Y0.9100  
G01 X-0.5855 Y0.9100  
G01 X-0.5650 Y0.8895  
G01 X-0.5650 Y0.8605  
G01 X-0.5790 Y0.8465  
G01 X-0.5790 Y0.6412  
G01 X-0.5731 Y0.6353  
G01 X-0.5676 Y0.6278  
G01 X-0.5634 Y0.6195  
G01 X-0.5606 Y0.6107  
G01 X-0.5591 Y0.6015  
G01 X-0.5591 Y0.4922  
G01 X-0.5606 Y0.4830  
G01 X-0.5634 Y0.4742  
G01 X-0.5676 Y0.4659  
G01 X-0.5731 Y0.4584  
G00 Z0.0500  
G00 X-0.7809 Y0.3960  
G01 Z-0.0040 F10    
G01 X-0.7540 Y0.3691  F20    
G01 X-0.7540 Y0.3309  
G01 X-0.7809 Y0.3040  
G01 X-0.8191 Y0.3040  
G01 X-0.8460 Y0.3309  
G01 X-0.8460 Y0.3364  
G01 X-0.8540 Y0.3377  
G01 X-0.8540 Y0.3309  
G01 X-0.8809 Y0.3040  
G01 X-0.9191 Y0.3040  
G01 X-0.9460 Y0.3309  
G01 X-0.9460 Y0.3399  
G01 X-0.9478 Y0.3403  
G01 X-0.9479 Y0.3404  
G01 X-0.9481 Y0.3404  
G01 X-0.9503 Y0.3417  
G01 X-0.9526 Y0.3430  
G01 X-0.9527 Y0.3431  
G01 X-0.9529 Y0.3432  
G01 X-0.9547 Y0.3450  
G01 X-0.9566 Y0.3468  
G01 X-0.9567 Y0.3470  
G01 X-0.9568 Y0.3471  
G01 X-0.9581 Y0.3493  
G01 X-0.9593 Y0.3513  
G01 X-1.1165 Y0.4150  
G01 X-1.1177 Y0.4153  
G01 X-1.1190 Y0.4160  
G01 X-1.1204 Y0.4166  
G01 X-1.1214 Y0.4173  
G01 X-1.1226 Y0.4179  
G01 X-1.1236 Y0.4190  
G01 X-1.1249 Y0.4199  
G01 X-1.1256 Y0.4209  
G01 X-1.1265 Y0.4218  
G01 X-1.1273 Y0.4231  
G01 X-1.1283 Y0.4243  
G01 X-1.1287 Y0.4254  
G01 X-1.1294 Y0.4265  
G01 X-1.1298 Y0.4280  
G01 X-1.1304 Y0.4294  
G01 X-1.1306 Y0.4306  
G01 X-1.1309 Y0.4318  
G01 X-1.1310 Y0.4333  
G01 X-1.1312 Y0.4348  
G01 X-1.1310 Y0.4361  
G01 X-1.1459 Y1.1718  
G01 X-1.1460 Y1.1746  
G01 X-1.1461 Y1.1773  
G01 X-1.1454 Y1.1801  
G01 X-1.1447 Y1.1827  
G01 X-1.1434 Y1.1852  
G01 X-1.1421 Y1.1876  
G01 X-1.1401 Y1.1896  
G01 X-1.1382 Y1.1915  
G01 X-1.1358 Y1.1930  
G01 X-1.1335 Y1.1944  
G01 X-1.0130 Y1.2667  
G01 X-0.9710 Y1.3087  
G01 X-0.9710 Y1.4232  
G01 X-0.9712 Y1.4242  
G01 X-0.9710 Y1.4260  
G01 X-0.9710 Y1.4278  
G01 X-0.9707 Y1.4287  
G01 X-0.9561 Y1.5850  
G01 X-0.9562 Y1.5857  
G01 X-0.9558 Y1.5877  
G01 X-0.9557 Y1.5897  
G01 X-0.9554 Y1.5904  
G01 X-0.9310 Y1.7369  
G01 X-0.9309 Y1.7382  
G01 X-0.9305 Y1.7397  
G01 X-0.9303 Y1.7412  
G01 X-0.9297 Y1.7423  
G01 X-0.8759 Y1.9282  
G01 X-0.8714 Y2.1790  
G01 X-0.9719 Y2.1790  
G01 X-0.9728 Y2.1777  
G01 X-0.9777 Y2.1728  
G01 X-0.9834 Y2.1690  
G01 X-0.9898 Y2.1663  
G01 X-0.9966 Y2.1650  
G01 X-1.0034 Y2.1650  
G01 X-1.0102 Y2.1663  
G01 X-1.0166 Y2.1690  
G01 X-1.0223 Y2.1728  
G01 X-1.0272 Y2.1777  
G01 X-1.0310 Y2.1834  
G01 X-1.0337 Y2.1898  
G01 X-1.0350 Y2.1966  
G01 X-1.0350 Y2.2034  
G01 X-1.0337 Y2.2102  
G01 X-1.0310 Y2.2166  
G01 X-1.0272 Y2.2223  
G01 X-1.0223 Y2.2272  
G01 X-1.0166 Y2.2310  
G01 X-1.0102 Y2.2337  
G01 X-1.0034 Y2.2350  
G01 X-0.9966 Y2.2350  
G01 X-0.9898 Y2.2337  
G01 X-0.9834 Y2.2310  
G01 X-0.9777 Y2.2272  
G01 X-0.9728 Y2.2223  
G01 X-0.9719 Y2.2210  
G01 X-0.8748 Y2.2210  
G01 X-0.8906 Y2.3162  
G01 X-0.9100 Y2.3355  
G01 X-0.9100 Y2.3645  
G01 X-0.8895 Y2.3850  
G01 X-0.8605 Y2.3850  
G01 X-0.8400 Y2.3645  
G01 X-0.8400 Y2.3355  
G01 X-0.8497 Y2.3258  
G01 X-0.8295 Y2.2045  
G01 X-0.8290 Y2.2028  
G01 X-0.8290 Y2.2026  
G01 X-0.8290 Y2.2024  
G01 X-0.8290 Y2.2015  
G01 X-0.8288 Y2.2007  
G01 X-0.8290 Y2.1990  
G01 X-0.8290 Y2.1972  
G01 X-0.8291 Y2.1970  
G01 X-0.8340 Y1.9274  
G01 X-0.8340 Y1.9246  
G01 X-0.8341 Y1.9219  
G01 X-0.8348 Y1.9192  
G01 X-0.8356 Y1.9165  
G01 X-0.8895 Y1.7303  
G01 X-0.9142 Y1.5823  
G01 X-0.9290 Y1.4240  
G01 X-0.9290 Y1.2972  
G01 X-0.9304 Y1.2919  
G01 X-0.9332 Y1.2871  
G01 X-0.9850 Y1.2353  
G01 X-0.9868 Y1.2334  
G01 X-0.9870 Y1.2333  
G01 X-0.9871 Y1.2332  
G01 X-0.9894 Y1.2319  
G01 X-1.1038 Y1.1633  
G01 X-1.0893 Y0.4493  
G01 X-0.9302 Y0.3849  
G01 X-0.9191 Y0.3960  
G01 X-0.8809 Y0.3960  
G01 X-0.8659 Y0.3810  
G01 X-0.8610 Y0.3810  
G01 X-0.8593 Y0.3812  
G01 X-0.8583 Y0.3810  
G01 X-0.8572 Y0.3810  
G01 X-0.8555 Y0.3805  
G01 X-0.8375 Y0.3775  
G01 X-0.8191 Y0.3960  
G01 X-0.7809 Y0.3960  
G00 Z0.0500  
G00 X-0.7809 Y0.7040  
G01 Z-0.0040 F10    
G01 X-0.8191 Y0.7040  F20    
G01 X-0.8430 Y0.7279  
G01 X-0.8574 Y0.7276  
G01 X-0.8809 Y0.7040  
G01 X-0.9191 Y0.7040  
G01 X-0.9406 Y0.7256  
G01 X-1.0021 Y0.7241  
G01 X-1.0025 Y0.7240  
G01 X-1.0049 Y0.7240  
G01 X-1.0073 Y0.7239  
G01 X-1.0076 Y0.7240  
G01 X-1.0081 Y0.7240  
G01 X-1.0103 Y0.7247  
G01 X-1.0126 Y0.7252  
G01 X-1.0130 Y0.7254  
G01 X-1.0134 Y0.7255  
G01 X-1.0154 Y0.7268  
G01 X-1.0175 Y0.7279  
G01 X-1.0178 Y0.7282  
G01 X-1.0181 Y0.7284  
G01 X-1.0198 Y0.7301  
G01 X-1.0215 Y0.7317  
G01 X-1.0217 Y0.7320  
G01 X-1.0220 Y0.7323  
G01 X-1.0231 Y0.7344  
G01 X-1.0244 Y0.7364  
G01 X-1.0245 Y0.7368  
G01 X-1.0247 Y0.7372  
G01 X-1.0253 Y0.7395  
G01 X-1.0259 Y0.7417  
G01 X-1.0259 Y0.7421  
G01 X-1.0260 Y0.7425  
G01 X-1.0260 Y0.7449  
G01 X-1.0261 Y0.7473  
G01 X-1.0260 Y0.7476  
G01 X-1.0210 Y1.0981  
G01 X-1.0211 Y1.0987  
G01 X-1.0210 Y1.1009  
G01 X-1.0210 Y1.1031  
G01 X-1.0208 Y1.1036  
G01 X-1.0208 Y1.1042  
G01 X-1.0200 Y1.1063  
G01 X-1.0195 Y1.1084  
G01 X-1.0191 Y1.1089  
