(/Applications/pcbgcode.repo/pcb-gcode.ulp)
(Copyright 2005 - 2012 by John Johnson)
(See readme.txt for licensing terms.)
(This file generated from the board:)
(.../LinearSlewLimiter/LinearSlewLimiter.brd)
(Current profile is .../pcbgcode.repo/profiles/mach.pp  )
(This file generated 10/9/15 6:28 PM)
(Settings from pcb-machine.h)
(spindle on time = 0.0000)
(spindle speed = 20000.0000)
(tool change at 0.0000  0.0000  3.0000  )
(feed rate xy = F0     )
(feed rate z  = F20    )
(Z Axis Settings)
(  High     Up        Down     Drill)
(1.0000  	0.0500  	-0.0040 	-0.0730 )
(Settings from pcb-defaults.h)
(isolate min = 0.0010)
(isolate max = 0.0150)
(isolate step = 0.0015)
(Generated bottom outlines, bottom drill, )
(Unit of measure: inch)
( Tool|       Size       |  Min Sub |  Max Sub |   Count )
( T01 | 0.813mm 0.0320in | 0.0000in | 0.0000in |       0 )
( T02 | 1.016mm 0.0400in | 0.0000in | 0.0000in |       0 )
( T03 | 1.200mm 0.0472in | 0.0000in | 0.0000in |       0 )
( T04 | 1.300mm 0.0512in | 0.0000in | 0.0000in |       0 )
(Inch Mode)
G20
(Absolute Coordinates)
G90
S20000
G00 Z1.0000  
G00 X0.0000  Y0.0000  
M03
G04 P0.000000
M05
G00 Z3.0000  
M06 T01  ; 0.0320  
G01 Z0.0000  F20    
M06 
G00 Z0.0500  
M03
G04 P0.000000
G82 X-0.3500 Y2.1500  Z-0.0730 F20    R0.0500  P0.010000
G82 X-0.5000 Y2.1500  
G82 X-0.7000 Y2.1000  
G82 X-0.7000 Y2.0000  
G82 X-0.7000 Y1.9000  
G82 X-0.7500 Y1.7000  
G82 X-0.8500 Y1.7000  
G82 X-0.7000 Y1.5500  
G82 X-0.5500 Y1.5500  
G82 X-0.5500 Y1.7500  
G82 X-0.7250 Y1.3250  
G82 X-0.6000 Y1.1750  
G82 X-0.6000 Y0.8750  
G82 X-1.0250 Y1.3250  
G82 X-1.0000 Y1.5500  
G82 X-1.0000 Y1.9000  
G82 X-1.0000 Y2.0000  
G82 X-1.0000 Y2.1000  
G82 X-1.0000 Y2.2000  
G82 X-0.8750 Y2.3500  
G82 X-0.7750 Y2.3500  
G82 X-0.7000 Y2.2000  
G82 X-0.5000 Y2.4500  
G82 X-0.3500 Y2.4500  
G82 X-0.7000 Y2.6250  
G82 X-1.0000 Y2.6250  
M05
G00 Z3.0000  
G00 X0.0000  Y0.0000  
M06 T02  ; 0.0400  
G01 Z0.0000  F20    
M06 
G00 Z0.0500  
M03
G04 P0.000000
G82 X-0.3750 Y2.0000  Z-0.0730 F20    R0.0500  P0.010000
G82 X-0.5000 Y2.0000  
G82 X-0.4000 Y1.8500  
G82 X-0.8000 Y1.0500  
G82 X-0.9000 Y1.0500  
G82 X-0.9000 Y0.9500  
G82 X-0.9000 Y0.8500  
G82 X-0.9000 Y0.7500  
G82 X-0.9000 Y0.6500  
G82 X-0.9000 Y0.5500  
G82 X-0.8000 Y0.5500  
G82 X-0.8000 Y0.6500  
G82 X-0.8000 Y0.7500  
G82 X-0.8000 Y0.8500  
G82 X-0.8000 Y0.9500  
G82 X-0.8000 Y0.4500  
G82 X-0.9000 Y0.4500  
G82 X-0.9000 Y0.3500  
G82 X-0.8000 Y0.3500  
M05
G00 Z3.0000  
G00 X0.0000  Y0.0000  
M06 T03  ; 0.0472  
G01 Z0.0000  F20    
M06 
G00 Z0.0500  
M03
G04 P0.000000
G82 X-0.1000 Y1.9031  Z-0.0730 F20    R0.0500  P0.010000
G82 X-0.1000 Y2.1000  
G82 X-0.1000 Y2.2969  
M05
G00 Z3.0000  
G00 X0.0000  Y0.0000  
M06 T04  ; 0.0512  
G01 Z0.0000  F20    
M06 
G00 Z0.0500  
M03
G04 P0.000000
G82 X-0.0980 Y0.5130  Z-0.0730 F20    R0.0500  P0.010000
G82 X-0.0984 Y0.5469  
G82 X-0.0980 Y0.5800  
G82 X-0.4980 Y0.3420  
G82 X-0.5315 Y0.3421  
G82 X-0.5650 Y0.3420  
G82 X-0.6180 Y0.5140  
G82 X-0.6181 Y0.5469  
G82 X-0.6180 Y0.5800  
G82 X-0.5650 Y2.5920  
G82 X-0.5315 Y2.5921  
G82 X-0.4980 Y2.5920  
G82 X-0.6180 Y2.7640  
G82 X-0.6181 Y2.7969  
G82 X-0.6180 Y2.8300  
G82 X-0.0980 Y2.8300  
G82 X-0.0984 Y2.7969  
G82 X-0.0980 Y2.7630  
T01 
G00 Z1.0000  
M05
M02
